(G-CODE GENERATED BY FLATCAM v8.98 - www.flatcam.org - Version Date: 2019/10/16)

(Name: TurnsCounter.drl_mill_slot_cnc_Slot_mill)
(Type: G-code from Geometry)
(Units: MM)

(Created on Monday, 22 August 2022 at 18:55)

(TOOL DIAMETER: 1.0 mm)
(Feedrate: 150.0 mm/min)
(Feedrate_Z: 250.0 mm/min)
(Feedrate rapids 80.0 mm/min)

(Z_Cut: -1.7 mm)
(DepthPerCut: 0.4 mm <=>5 passes)
(Z_Move: 5.0 mm)
(Z Toolchange: 100.0 mm)
(X,Y Toolchange: 0.0000, 0.0000 mm)
(Z Start: None mm)
(Z End: 100.0 mm)
(Steps per circle: 128)
(Postprocessor Geometry: default)

(X range:   29.6899 ...   35.6901  mm)
(Y range:    4.0419 ...    9.7421  mm)

(Spindle Speed: 15000 RPM)

G21
G90
G94

G01 F150.00
G00 Z5.0000

M03 S15000
G00 X29.6899 Y6.0420
G01 F250.00
G01 Z-0.4000
G01 F150.00
G01 X29.6901 Y6.0420
G01 X29.6900 Y4.0419
G01 X29.6899 Y4.0420
G01 X29.6899 Y6.0420
G00 X29.6899 Y6.0420
G01 F250.00
G01 Z-0.8000
G01 F150.00
G01 X29.6901 Y6.0420
G01 X29.6900 Y4.0419
G01 X29.6899 Y4.0420
G01 X29.6899 Y6.0420
G00 X29.6899 Y6.0420
G01 F250.00
G01 Z-1.2000
G01 F150.00
G01 X29.6901 Y6.0420
G01 X29.6900 Y4.0419
G01 X29.6899 Y4.0420
G01 X29.6899 Y6.0420
G00 X29.6899 Y6.0420
G01 F250.00
G01 Z-1.6000
G01 F150.00
G01 X29.6901 Y6.0420
G01 X29.6900 Y4.0419
G01 X29.6899 Y4.0420
G01 X29.6899 Y6.0420
G00 X29.6899 Y6.0420
G01 F250.00
G01 Z-1.7000
G01 F150.00
G01 X29.6901 Y6.0420
G01 X29.6900 Y4.0419
G01 X29.6899 Y4.0420
G01 X29.6899 Y6.0420
G00 Z5.0000
G00 X31.6900 Y9.7419
G01 F250.00
G01 Z-0.4000
G01 F150.00
G01 X31.6900 Y9.7421
G01 X33.6901 Y9.7420
G01 X33.6900 Y9.7419
G01 X31.6900 Y9.7419
G00 X31.6900 Y9.7419
G01 F250.00
G01 Z-0.8000
G01 F150.00
G01 X31.6900 Y9.7421
G01 X33.6901 Y9.7420
G01 X33.6900 Y9.7419
G01 X31.6900 Y9.7419
G00 X31.6900 Y9.7419
G01 F250.00
G01 Z-1.2000
G01 F150.00
G01 X31.6900 Y9.7421
G01 X33.6901 Y9.7420
G01 X33.6900 Y9.7419
G01 X31.6900 Y9.7419
G00 X31.6900 Y9.7419
G01 F250.00
G01 Z-1.6000
G01 F150.00
G01 X31.6900 Y9.7421
G01 X33.6901 Y9.7420
G01 X33.6900 Y9.7419
G01 X31.6900 Y9.7419
G00 X31.6900 Y9.7419
G01 F250.00
G01 Z-1.7000
G01 F150.00
G01 X31.6900 Y9.7421
G01 X33.6901 Y9.7420
G01 X33.6900 Y9.7419
G01 X31.6900 Y9.7419
G00 Z5.0000
G00 X35.6899 Y6.0420
G01 F250.00
G01 Z-0.4000
G01 F150.00
G01 X35.6901 Y6.0420
G01 X35.6900 Y4.0419
G01 X35.6899 Y4.0420
G01 X35.6899 Y6.0420
G00 X35.6899 Y6.0420
G01 F250.00
G01 Z-0.8000
G01 F150.00
G01 X35.6901 Y6.0420
G01 X35.6900 Y4.0419
G01 X35.6899 Y4.0420
G01 X35.6899 Y6.0420
G00 X35.6899 Y6.0420
G01 F250.00
G01 Z-1.2000
G01 F150.00
G01 X35.6901 Y6.0420
G01 X35.6900 Y4.0419
G01 X35.6899 Y4.0420
G01 X35.6899 Y6.0420
G00 X35.6899 Y6.0420
G01 F250.00
G01 Z-1.6000
G01 F150.00
G01 X35.6901 Y6.0420
G01 X35.6900 Y4.0419
G01 X35.6899 Y4.0420
G01 X35.6899 Y6.0420
G00 X35.6899 Y6.0420
G01 F250.00
G01 Z-1.7000
G01 F150.00
G01 X35.6901 Y6.0420
G01 X35.6900 Y4.0419
G01 X35.6899 Y4.0420
G01 X35.6899 Y6.0420
G00 Z5.0000
M05
G00 Z5.0000
G00 Z100.00
G00 X0.0 Y0.0

M02