(G-CODE GENERATED BY FLATCAM v8.98 - www.flatcam.org - Version Date: 2019/10/16)

(Name: TurnsCounter.drl_cnc_10)
(Type: G-code from Excellon)
(Units: MM)

(Created on Monday, 22 August 2022 at 18:50)

(Feedrate: 250.0 mm/min)
(Feedrate rapids 800.0009 mm/min)

(Z_Cut: -2.0 mm)
(Z_Move: 5.0 mm)
(Z Toolchange: 100.0 mm)
(X,Y Toolchange: 0.0000, 0.0000 mm)
(Z Start: None mm)
(Z End: 100.0 mm)
(Steps per circle: 128)
(Postprocessor Excellon: default)

(X range:    3.3100 ...   67.1750  mm)
(Y range:    1.4100 ...   78.6050  mm)

(Spindle Speed: 15000.0 RPM)

G21
G90
G94

G01 F250.00
G00 Z5.0000

M03 S15000.0
G00 X59.1850 Y68.3490
G01 Z-2.0000
G01 Z0
G00 Z5.0000
G00 X60.9630 Y66.8250
G01 Z-2.0000
G01 Z0
G00 Z5.0000
G00 X64.0110 Y66.8250
G01 Z-2.0000
G01 Z0
G00 Z5.0000
G00 X62.4870 Y68.3490
G01 Z-2.0000
G01 Z0
G00 Z5.0000
M03 S15000.0
G00 X3.8100 Y28.5750
G01 Z-2.0000
G01 Z0
G00 Z5.0000
G00 X3.8100 Y26.0350
G01 Z-2.0000
G01 Z0
G00 Z5.0000
G00 X3.8100 Y23.4950
G01 Z-2.0000
G01 Z0
G00 Z5.0000
G00 X3.8100 Y20.9550
G01 Z-2.0000
G01 Z0
G00 Z5.0000
G00 X3.8100 Y17.1450
G01 Z-2.0000
G01 Z0
G00 Z5.0000
G00 X3.8100 Y14.6050
G01 Z-2.0000
G01 Z0
G00 Z5.0000
G00 X3.8100 Y12.0650
G01 Z-2.0000
G01 Z0
G00 Z5.0000
G00 X3.8100 Y9.5250
G01 Z-2.0000
G01 Z0
G00 Z5.0000
G00 X3.8100 Y6.9850
G01 Z-2.0000
G01 Z0
G00 Z5.0000
G00 X3.8100 Y4.4450
G01 Z-2.0000
G01 Z0
G00 Z5.0000
G00 X29.2100 Y15.2400
G01 Z-2.0000
G01 Z0
G00 Z5.0000
G00 X31.7500 Y15.2400
G01 Z-2.0000
G01 Z0
G00 Z5.0000
G00 X34.2900 Y15.2400
G01 Z-2.0000
G01 Z0
G00 Z5.0000
G00 X36.8300 Y15.2400
G01 Z-2.0000
G01 Z0
G00 Z5.0000
G00 X66.6750 Y7.6200
G01 Z-2.0000
G01 Z0
G00 Z5.0000
G00 X66.6750 Y10.1600
G01 Z-2.0000
G01 Z0
G00 Z5.0000
G00 X66.6750 Y12.7000
G01 Z-2.0000
G01 Z0
G00 Z5.0000
G00 X66.6750 Y15.2400
G01 Z-2.0000
G01 Z0
G00 Z5.0000
G00 X66.6750 Y17.7800
G01 Z-2.0000
G01 Z0
G00 Z5.0000
G00 X66.6750 Y20.3200
G01 Z-2.0000
G01 Z0
G00 Z5.0000
G00 X66.6750 Y22.8600
G01 Z-2.0000
G01 Z0
G00 Z5.0000
G00 X66.6750 Y25.4000
G01 Z-2.0000
G01 Z0
G00 Z5.0000
G00 X66.6750 Y27.9400
G01 Z-2.0000
G01 Z0
G00 Z5.0000
G00 X66.6750 Y30.4800
G01 Z-2.0000
G01 Z0
G00 Z5.0000
G00 X66.6750 Y33.0200
G01 Z-2.0000
G01 Z0
G00 Z5.0000
G00 X66.6750 Y35.5600
G01 Z-2.0000
G01 Z0
G00 Z5.0000
G00 X66.6750 Y38.1000
G01 Z-2.0000
G01 Z0
G00 Z5.0000
G00 X66.6750 Y40.6400
G01 Z-2.0000
G01 Z0
G00 Z5.0000
G00 X66.6750 Y43.1800
G01 Z-2.0000
G01 Z0
G00 Z5.0000
G00 X66.6750 Y45.7200
G01 Z-2.0000
G01 Z0
G00 Z5.0000
G00 X66.6750 Y78.1050
G01 Z-2.0000
G01 Z0
G00 Z5.0000
G00 X64.1350 Y78.1050
G01 Z-2.0000
G01 Z0
G00 Z5.0000
G00 X61.5950 Y78.1050
G01 Z-2.0000
G01 Z0
G00 Z5.0000
G00 X59.0550 Y78.1050
G01 Z-2.0000
G01 Z0
G00 Z5.0000
G00 X55.2450 Y78.1050
G01 Z-2.0000
G01 Z0
G00 Z5.0000
G00 X52.7050 Y78.1050
G01 Z-2.0000
G01 Z0
G00 Z5.0000
G00 X50.1650 Y78.1050
G01 Z-2.0000
G01 Z0
G00 Z5.0000
G00 X47.6250 Y78.1050
G01 Z-2.0000
G01 Z0
G00 Z5.0000
G00 X45.0850 Y78.1050
G01 Z-2.0000
G01 Z0
G00 Z5.0000
G00 X42.5450 Y78.1050
G01 Z-2.0000
G01 Z0
G00 Z5.0000
G00 X33.6550 Y64.7700
G01 Z-2.0000
G01 Z0
G00 Z5.0000
G00 X31.1150 Y64.7700
G01 Z-2.0000
G01 Z0
G00 Z5.0000
G00 X28.5750 Y64.7700
G01 Z-2.0000
G01 Z0
G00 Z5.0000
G00 X26.0350 Y64.7700
G01 Z-2.0000
G01 Z0
G00 Z5.0000
G00 X23.4950 Y64.7700
G01 Z-2.0000
G01 Z0
G00 Z5.0000
G00 X20.9550 Y64.7700
G01 Z-2.0000
G01 Z0
G00 Z5.0000
G00 X18.4150 Y64.7700
G01 Z-2.0000
G01 Z0
G00 Z5.0000
G00 X15.8750 Y64.7700
G01 Z-2.0000
G01 Z0
G00 Z5.0000
G00 X29.8450 Y44.4500
G01 Z-2.0000
G01 Z0
G00 Z5.0000
G00 X32.3850 Y44.4500
G01 Z-2.0000
G01 Z0
G00 Z5.0000
G00 X34.9250 Y44.4500
G01 Z-2.0000
G01 Z0
G00 Z5.0000
G00 X35.5600 Y27.9400
G01 Z-2.0000
G01 Z0
G00 Z5.0000
G00 X35.5600 Y25.4000
G01 Z-2.0000
G01 Z0
G00 Z5.0000
G00 X35.5600 Y22.8600
G01 Z-2.0000
G01 Z0
G00 Z5.0000
G00 X35.5600 Y20.3200
G01 Z-2.0000
G01 Z0
G00 Z5.0000
G00 X27.3050 Y44.4500
G01 Z-2.0000
G01 Z0
G00 Z5.0000
G00 X24.7650 Y44.4500
G01 Z-2.0000
G01 Z0
G00 Z5.0000
G00 X22.2250 Y44.4500
G01 Z-2.0000
G01 Z0
G00 Z5.0000
G00 X19.6850 Y44.4500
G01 Z-2.0000
G01 Z0
G00 Z5.0000
G00 X17.1450 Y44.4500
G01 Z-2.0000
G01 Z0
G00 Z5.0000
G00 X15.8750 Y36.7120
G01 Z-2.0000
G01 Z0
G00 Z5.0000
G00 X15.8750 Y34.1720
G01 Z-2.0000
G01 Z0
G00 Z5.0000
G00 X13.3350 Y34.1720
G01 Z-2.0000
G01 Z0
G00 Z5.0000
G00 X13.3350 Y36.7120
G01 Z-2.0000
G01 Z0
G00 Z5.0000
G00 X10.7950 Y36.7120
G01 Z-2.0000
G01 Z0
G00 Z5.0000
G00 X10.7950 Y34.1720
G01 Z-2.0000
G01 Z0
G00 Z5.0000
G00 X8.2550 Y34.1720
G01 Z-2.0000
G01 Z0
G00 Z5.0000
G00 X8.2550 Y36.7120
G01 Z-2.0000
G01 Z0
G00 Z5.0000
G00 X5.7150 Y36.7120
G01 Z-2.0000
G01 Z0
G00 Z5.0000
G00 X5.7150 Y34.1720
G01 Z-2.0000
G01 Z0
G00 Z5.0000
M03 S15000.0
G00 X12.7260 Y11.7160
G01 Z-2.0000
G01 Z0
G00 Z5.0000
G00 X12.7260 Y6.6360
G01 Z-2.0000
G01 Z0
G00 Z5.0000
G00 X18.6950 Y10.0000
G01 Z-2.0000
G01 Z0
G00 Z5.0000
G00 X21.2350 Y10.0000
G01 Z-2.0000
G01 Z0
G00 Z5.0000
G00 X23.7750 Y10.0000
G01 Z-2.0000
G01 Z0
G00 Z5.0000
G00 X31.8050 Y31.1150
G01 Z-2.0000
G01 Z0
G00 Z5.0000
G00 X31.8050 Y37.6150
G01 Z-2.0000
G01 Z0
G00 Z5.0000
G00 X47.6250 Y54.1000
G01 Z-2.0000
G01 Z0
G00 Z5.0000
G00 X51.3800 Y54.1000
G01 Z-2.0000
G01 Z0
G00 Z5.0000
G00 X55.8800 Y54.1000
G01 Z-2.0000
G01 Z0
G00 Z5.0000
G00 X55.8800 Y60.6000
G01 Z-2.0000
G01 Z0
G00 Z5.0000
G00 X51.3800 Y60.6000
G01 Z-2.0000
G01 Z0
G00 Z5.0000
G00 X47.6250 Y60.6000
G01 Z-2.0000
G01 Z0
G00 Z5.0000
G00 X47.6250 Y64.1350
G01 Z-2.0000
G01 Z0
G00 Z5.0000
G00 X51.3800 Y64.1350
G01 Z-2.0000
G01 Z0
G00 Z5.0000
G00 X55.8800 Y64.1350
G01 Z-2.0000
G01 Z0
G00 Z5.0000
G00 X55.8800 Y70.6350
G01 Z-2.0000
G01 Z0
G00 Z5.0000
G00 X51.3800 Y70.6350
G01 Z-2.0000
G01 Z0
G00 Z5.0000
G00 X47.6250 Y70.6350
G01 Z-2.0000
G01 Z0
G00 Z5.0000
G00 X43.1250 Y70.6350
G01 Z-2.0000
G01 Z0
G00 Z5.0000
G00 X43.1250 Y64.1350
G01 Z-2.0000
G01 Z0
G00 Z5.0000
G00 X43.1250 Y60.6000
G01 Z-2.0000
G01 Z0
G00 Z5.0000
G00 X43.1250 Y54.1000
G01 Z-2.0000
G01 Z0
G00 Z5.0000
G00 X27.3050 Y37.6150
G01 Z-2.0000
G01 Z0
G00 Z5.0000
G00 X27.3050 Y31.1150
G01 Z-2.0000
G01 Z0
G00 Z5.0000
M05
G00 Z100.00
G00 X0.0 Y0.0

M02