(G-CODE GENERATED BY FLATCAM v8.98 - www.flatcam.org - Version Date: 2019/10/16)

(Name: TurnsCounter.drl_cnc_40)
(Type: G-code from Excellon)
(Units: MM)

(Created on Monday, 22 August 2022 at 18:51)

(Feedrate: 250.0 mm/min)
(Feedrate rapids 800.0009 mm/min)

(Z_Cut: -2.0 mm)
(Z_Move: 5.0 mm)
(Z Toolchange: 100.0 mm)
(X,Y Toolchange: 0.0000, 0.0000 mm)
(Z Start: None mm)
(Z End: 100.0 mm)
(Steps per circle: 128)
(Postprocessor Excellon: default)

(X range:    3.3100 ...   67.1750  mm)
(Y range:    1.4100 ...   78.6050  mm)

(Spindle Speed: 15000.0 RPM)

G21
G90
G94

G01 F250.00
G00 Z5.0000

M03 S15000.0
G00 X10.0000 Y20.0000
G01 Z-2.0000
G01 Z0
G00 Z5.0000
G00 X30.0000 Y70.0000
G01 Z-2.0000
G01 Z0
G00 Z5.0000
M05
G00 Z100.00
G00 X0.0 Y0.0

M02