(G-CODE GENERATED BY FLATCAM v8.98 - www.flatcam.org - Version Date: 2019/10/16)

(Name: TurnsCounter-Edge_Cuts.gbr_cutout_cnc)
(Type: G-code from Geometry)
(Units: MM)

(Created on Monday, 22 August 2022 at 18:59)

(TOOL DIAMETER: 1.0 mm)
(Feedrate: 150.0 mm/min)
(Feedrate_Z: 250.0 mm/min)
(Feedrate rapids 80.0 mm/min)

(Z_Cut: -1.7 mm)
(DepthPerCut: 0.4 mm <=>5 passes)
(Z_Move: 5.0 mm)
(Z Toolchange: 100.0 mm)
(X,Y Toolchange: 0.0000, 0.0000 mm)
(Z Start: None mm)
(Z End: 100.0 mm)
(Steps per circle: 128)
(Postprocessor Geometry: default)

(X range:   -0.6500 ...   69.8650  mm)
(Y range:   -0.6500 ...   80.6600  mm)

(Spindle Speed: 15000 RPM)

G21
G90
G94

G01 F150.00
G00 Z5.0000

M03 S15000
G00 X-0.0000 Y-0.6500
G01 F250.00
G01 Z-0.4000
G01 F150.00
G01 X16.4287 Y-0.6500
G00 X16.4287 Y-0.6500
G01 F250.00
G01 Z-0.8000
G01 F150.00
G01 X-0.0000 Y-0.6500
G00 X-0.0000 Y-0.6500
G01 F250.00
G01 Z-1.2000
G01 F150.00
G01 X16.4287 Y-0.6500
G00 X16.4287 Y-0.6500
G01 F250.00
G01 Z-1.6000
G01 F150.00
G01 X-0.0000 Y-0.6500
G00 X-0.0000 Y-0.6500
G01 F250.00
G01 Z-1.7000
G01 F150.00
G01 X16.4287 Y-0.6500
G00 Z5.0000
G00 X17.6287 Y-0.6500
G01 F250.00
G01 Z-0.4000
G01 F150.00
G01 X51.7863 Y-0.6500
G00 X51.7863 Y-0.6500
G01 F250.00
G01 Z-0.8000
G01 F150.00
G01 X17.6287 Y-0.6500
G00 X17.6287 Y-0.6500
G01 F250.00
G01 Z-1.2000
G01 F150.00
G01 X51.7863 Y-0.6500
G00 X51.7863 Y-0.6500
G01 F250.00
G01 Z-1.6000
G01 F150.00
G01 X17.6287 Y-0.6500
G00 X17.6287 Y-0.6500
G01 F250.00
G01 Z-1.7000
G01 F150.00
G01 X51.7863 Y-0.6500
G00 Z5.0000
G00 X52.9863 Y-0.6500
G01 F250.00
G01 Z-0.4000
G01 F150.00
G01 X69.2322 Y-0.6498
G01 X69.2640 Y-0.6482
G01 X69.2958 Y-0.6450
G01 X69.3273 Y-0.6402
G01 X69.3586 Y-0.6339
G01 X69.3895 Y-0.6261
G01 X69.4177 Y-0.6176
G01 X69.4478 Y-0.6069
G01 X69.4773 Y-0.5947
G01 X69.5047 Y-0.5819
G01 X69.5343 Y-0.5662
G01 X69.5617 Y-0.5498
G01 X69.5883 Y-0.5321
G01 X69.6139 Y-0.5132
G01 X69.6386 Y-0.4930
G01 X69.6623 Y-0.4716
G01 X69.6849 Y-0.4491
G01 X69.7064 Y-0.4255
G01 X69.7267 Y-0.4009
G01 X69.7457 Y-0.3753
G01 X69.7635 Y-0.3488
G01 X69.7800 Y-0.3215
G01 X69.7951 Y-0.2933
G01 X69.8087 Y-0.2645
G01 X69.8183 Y-0.2420
G01 X69.8318 Y-0.2051
G01 X69.8411 Y-0.1745
G01 X69.8489 Y-0.1436
G01 X69.8524 Y-0.1274
G01 X69.8557 Y-0.1099
G01 X69.8603 Y-0.0783
G01 X69.8633 Y-0.0466
G01 X69.8648 Y-0.0172
G01 X69.8650 Y-0.0000
G01 X69.8650 Y80.0100
G01 X69.8648 Y80.0272
G01 X69.8633 Y80.0566
G01 X69.8603 Y80.0883
G01 X69.8557 Y80.1199
G01 X69.8524 Y80.1374
G01 X69.8489 Y80.1536
G01 X69.8411 Y80.1845
G01 X69.8326 Y80.2127
G01 X69.8219 Y80.2428
G01 X69.8097 Y80.2723
G01 X69.7969 Y80.2997
G01 X69.7800 Y80.3315
G01 X69.7635 Y80.3588
G01 X69.7457 Y80.3853
G01 X69.7267 Y80.4109
G01 X69.7080 Y80.4336
G01 X69.6866 Y80.4573
G01 X69.6746 Y80.4696
G01 X69.6623 Y80.4816
G01 X69.6386 Y80.5030
G01 X69.6159 Y80.5217
G01 X69.6048 Y80.5302
G01 X69.5883 Y80.5421
G01 X69.5617 Y80.5598
G01 X69.5343 Y80.5762
G01 X69.5062 Y80.5912
G01 X69.4773 Y80.6047
G01 X69.4501 Y80.6160
G01 X69.4201 Y80.6268
G01 X69.3895 Y80.6361
G01 X69.3586 Y80.6439
G01 X69.3424 Y80.6474
G01 X69.3249 Y80.6507
G01 X69.2933 Y80.6553
G01 X69.2616 Y80.6583
G01 X69.2322 Y80.6598
G01 X52.9863 Y80.6600
G00 X52.9863 Y80.6600
G01 F250.00
G01 Z-0.8000
G01 F150.00
G01 X69.2322 Y80.6598
G01 X69.2640 Y80.6582
G01 X69.2958 Y80.6550
G01 X69.3273 Y80.6502
G01 X69.3586 Y80.6439
G01 X69.3895 Y80.6361
G01 X69.4177 Y80.6276
G01 X69.4478 Y80.6169
G01 X69.4773 Y80.6047
G01 X69.5047 Y80.5919
G01 X69.5343 Y80.5762
G01 X69.5617 Y80.5598
G01 X69.5883 Y80.5421
G01 X69.6139 Y80.5232
G01 X69.6386 Y80.5030
G01 X69.6623 Y80.4816
G01 X69.6849 Y80.4591
G01 X69.7064 Y80.4355
G01 X69.7267 Y80.4109
G01 X69.7457 Y80.3853
G01 X69.7635 Y80.3588
G01 X69.7800 Y80.3315
G01 X69.7951 Y80.3033
G01 X69.8087 Y80.2745
G01 X69.8183 Y80.2520
G01 X69.8318 Y80.2151
G01 X69.8411 Y80.1845
G01 X69.8489 Y80.1536
G01 X69.8524 Y80.1374
G01 X69.8557 Y80.1199
G01 X69.8603 Y80.0883
G01 X69.8633 Y80.0566
G01 X69.8648 Y80.0272
G01 X69.8650 Y80.0100
G01 X69.8650 Y-0.0000
G01 X69.8648 Y-0.0172
G01 X69.8633 Y-0.0466
G01 X69.8603 Y-0.0783
G01 X69.8557 Y-0.1099
G01 X69.8524 Y-0.1274
G01 X69.8489 Y-0.1436
G01 X69.8411 Y-0.1745
G01 X69.8326 Y-0.2027
G01 X69.8219 Y-0.2328
G01 X69.8097 Y-0.2623
G01 X69.7969 Y-0.2897
G01 X69.7800 Y-0.3215
G01 X69.7635 Y-0.3488
G01 X69.7457 Y-0.3753
G01 X69.7267 Y-0.4009
G01 X69.7080 Y-0.4236
G01 X69.6866 Y-0.4473
G01 X69.6746 Y-0.4596
G01 X69.6623 Y-0.4716
G01 X69.6386 Y-0.4930
G01 X69.6159 Y-0.5117
G01 X69.6048 Y-0.5202
G01 X69.5883 Y-0.5321
G01 X69.5617 Y-0.5498
G01 X69.5343 Y-0.5662
G01 X69.5062 Y-0.5812
G01 X69.4773 Y-0.5947
G01 X69.4501 Y-0.6060
G01 X69.4201 Y-0.6168
G01 X69.3895 Y-0.6261
G01 X69.3586 Y-0.6339
G01 X69.3424 Y-0.6374
G01 X69.3249 Y-0.6407
G01 X69.2933 Y-0.6453
G01 X69.2616 Y-0.6483
G01 X69.2322 Y-0.6498
G01 X52.9863 Y-0.6500
G00 X52.9863 Y-0.6500
G01 F250.00
G01 Z-1.2000
G01 F150.00
G01 X69.2322 Y-0.6498
G01 X69.2640 Y-0.6482
G01 X69.2958 Y-0.6450
G01 X69.3273 Y-0.6402
G01 X69.3586 Y-0.6339
G01 X69.3895 Y-0.6261
G01 X69.4177 Y-0.6176
G01 X69.4478 Y-0.6069
G01 X69.4773 Y-0.5947
G01 X69.5047 Y-0.5819
G01 X69.5343 Y-0.5662
G01 X69.5617 Y-0.5498
G01 X69.5883 Y-0.5321
G01 X69.6139 Y-0.5132
G01 X69.6386 Y-0.4930
G01 X69.6623 Y-0.4716
G01 X69.6849 Y-0.4491
G01 X69.7064 Y-0.4255
G01 X69.7267 Y-0.4009
G01 X69.7457 Y-0.3753
G01 X69.7635 Y-0.3488
G01 X69.7800 Y-0.3215
G01 X69.7951 Y-0.2933
G01 X69.8087 Y-0.2645
G01 X69.8183 Y-0.2420
G01 X69.8318 Y-0.2051
G01 X69.8411 Y-0.1745
G01 X69.8489 Y-0.1436
G01 X69.8524 Y-0.1274
G01 X69.8557 Y-0.1099
G01 X69.8603 Y-0.0783
G01 X69.8633 Y-0.0466
G01 X69.8648 Y-0.0172
G01 X69.8650 Y-0.0000
G01 X69.8650 Y80.0100
G01 X69.8648 Y80.0272
G01 X69.8633 Y80.0566
G01 X69.8603 Y80.0883
G01 X69.8557 Y80.1199
G01 X69.8524 Y80.1374
G01 X69.8489 Y80.1536
G01 X69.8411 Y80.1845
G01 X69.8326 Y80.2127
G01 X69.8219 Y80.2428
G01 X69.8097 Y80.2723
G01 X69.7969 Y80.2997
G01 X69.7800 Y80.3315
G01 X69.7635 Y80.3588
G01 X69.7457 Y80.3853
G01 X69.7267 Y80.4109
G01 X69.7080 Y80.4336
G01 X69.6866 Y80.4573
G01 X69.6746 Y80.4696
G01 X69.6623 Y80.4816
G01 X69.6386 Y80.5030
G01 X69.6159 Y80.5217
G01 X69.6048 Y80.5302
G01 X69.5883 Y80.5421
G01 X69.5617 Y80.5598
G01 X69.5343 Y80.5762
G01 X69.5062 Y80.5912
G01 X69.4773 Y80.6047
G01 X69.4501 Y80.6160
G01 X69.4201 Y80.6268
G01 X69.3895 Y80.6361
G01 X69.3586 Y80.6439
G01 X69.3424 Y80.6474
G01 X69.3249 Y80.6507
G01 X69.2933 Y80.6553
G01 X69.2616 Y80.6583
G01 X69.2322 Y80.6598
G01 X52.9863 Y80.6600
G00 X52.9863 Y80.6600
G01 F250.00
G01 Z-1.6000
G01 F150.00
G01 X69.2322 Y80.6598
G01 X69.2640 Y80.6582
G01 X69.2958 Y80.6550
G01 X69.3273 Y80.6502
G01 X69.3586 Y80.6439
G01 X69.3895 Y80.6361
G01 X69.4177 Y80.6276
G01 X69.4478 Y80.6169
G01 X69.4773 Y80.6047
G01 X69.5047 Y80.5919
G01 X69.5343 Y80.5762
G01 X69.5617 Y80.5598
G01 X69.5883 Y80.5421
G01 X69.6139 Y80.5232
G01 X69.6386 Y80.5030
G01 X69.6623 Y80.4816
G01 X69.6849 Y80.4591
G01 X69.7064 Y80.4355
G01 X69.7267 Y80.4109
G01 X69.7457 Y80.3853
G01 X69.7635 Y80.3588
G01 X69.7800 Y80.3315
G01 X69.7951 Y80.3033
G01 X69.8087 Y80.2745
G01 X69.8183 Y80.2520
G01 X69.8318 Y80.2151
G01 X69.8411 Y80.1845
G01 X69.8489 Y80.1536
G01 X69.8524 Y80.1374
G01 X69.8557 Y80.1199
G01 X69.8603 Y80.0883
G01 X69.8633 Y80.0566
G01 X69.8648 Y80.0272
G01 X69.8650 Y80.0100
G01 X69.8650 Y-0.0000
G01 X69.8648 Y-0.0172
G01 X69.8633 Y-0.0466
G01 X69.8603 Y-0.0783
G01 X69.8557 Y-0.1099
G01 X69.8524 Y-0.1274
G01 X69.8489 Y-0.1436
G01 X69.8411 Y-0.1745
G01 X69.8326 Y-0.2027
G01 X69.8219 Y-0.2328
G01 X69.8097 Y-0.2623
G01 X69.7969 Y-0.2897
G01 X69.7800 Y-0.3215
G01 X69.7635 Y-0.3488
G01 X69.7457 Y-0.3753
G01 X69.7267 Y-0.4009
G01 X69.7080 Y-0.4236
G01 X69.6866 Y-0.4473
G01 X69.6746 Y-0.4596
G01 X69.6623 Y-0.4716
G01 X69.6386 Y-0.4930
G01 X69.6159 Y-0.5117
G01 X69.6048 Y-0.5202
G01 X69.5883 Y-0.5321
G01 X69.5617 Y-0.5498
G01 X69.5343 Y-0.5662
G01 X69.5062 Y-0.5812
G01 X69.4773 Y-0.5947
G01 X69.4501 Y-0.6060
G01 X69.4201 Y-0.6168
G01 X69.3895 Y-0.6261
G01 X69.3586 Y-0.6339
G01 X69.3424 Y-0.6374
G01 X69.3249 Y-0.6407
G01 X69.2933 Y-0.6453
G01 X69.2616 Y-0.6483
G01 X69.2322 Y-0.6498
G01 X52.9863 Y-0.6500
G00 X52.9863 Y-0.6500
G01 F250.00
G01 Z-1.7000
G01 F150.00
G01 X69.2322 Y-0.6498
G01 X69.2640 Y-0.6482
G01 X69.2958 Y-0.6450
G01 X69.3273 Y-0.6402
G01 X69.3586 Y-0.6339
G01 X69.3895 Y-0.6261
G01 X69.4177 Y-0.6176
G01 X69.4478 Y-0.6069
G01 X69.4773 Y-0.5947
G01 X69.5047 Y-0.5819
G01 X69.5343 Y-0.5662
G01 X69.5617 Y-0.5498
G01 X69.5883 Y-0.5321
G01 X69.6139 Y-0.5132
G01 X69.6386 Y-0.4930
G01 X69.6623 Y-0.4716
G01 X69.6849 Y-0.4491
G01 X69.7064 Y-0.4255
G01 X69.7267 Y-0.4009
G01 X69.7457 Y-0.3753
G01 X69.7635 Y-0.3488
G01 X69.7800 Y-0.3215
G01 X69.7951 Y-0.2933
G01 X69.8087 Y-0.2645
G01 X69.8183 Y-0.2420
G01 X69.8318 Y-0.2051
G01 X69.8411 Y-0.1745
G01 X69.8489 Y-0.1436
G01 X69.8524 Y-0.1274
G01 X69.8557 Y-0.1099
G01 X69.8603 Y-0.0783
G01 X69.8633 Y-0.0466
G01 X69.8648 Y-0.0172
G01 X69.8650 Y-0.0000
G01 X69.8650 Y80.0100
G01 X69.8648 Y80.0272
G01 X69.8633 Y80.0566
G01 X69.8603 Y80.0883
G01 X69.8557 Y80.1199
G01 X69.8524 Y80.1374
G01 X69.8489 Y80.1536
G01 X69.8411 Y80.1845
G01 X69.8326 Y80.2127
G01 X69.8219 Y80.2428
G01 X69.8097 Y80.2723
G01 X69.7969 Y80.2997
G01 X69.7800 Y80.3315
G01 X69.7635 Y80.3588
G01 X69.7457 Y80.3853
G01 X69.7267 Y80.4109
G01 X69.7080 Y80.4336
G01 X69.6866 Y80.4573
G01 X69.6746 Y80.4696
G01 X69.6623 Y80.4816
G01 X69.6386 Y80.5030
G01 X69.6159 Y80.5217
G01 X69.6048 Y80.5302
G01 X69.5883 Y80.5421
G01 X69.5617 Y80.5598
G01 X69.5343 Y80.5762
G01 X69.5062 Y80.5912
G01 X69.4773 Y80.6047
G01 X69.4501 Y80.6160
G01 X69.4201 Y80.6268
G01 X69.3895 Y80.6361
G01 X69.3586 Y80.6439
G01 X69.3424 Y80.6474
G01 X69.3249 Y80.6507
G01 X69.2933 Y80.6553
G01 X69.2616 Y80.6583
G01 X69.2322 Y80.6598
G01 X52.9863 Y80.6600
G00 Z5.0000
G00 X51.7863 Y80.6600
G01 F250.00
G01 Z-0.4000
G01 F150.00
G01 X40.6396 Y80.6600
G01 X24.2596 Y80.6500
G01 X24.2282 Y80.6492
G01 X24.1964 Y80.6469
G01 X24.1647 Y80.6430
G01 X24.1333 Y80.6376
G01 X24.1165 Y80.6340
G01 X24.0879 Y80.6268
G01 X24.0714 Y80.6221
G01 X24.0411 Y80.6121
G01 X24.0250 Y80.6061
G01 X23.9978 Y80.5948
G01 X23.9703 Y80.5819
G01 X23.9537 Y80.5733
G01 X23.9387 Y80.5650
G01 X23.9134 Y80.5499
G01 X23.8990 Y80.5405
G01 X23.8729 Y80.5222
G01 X23.8592 Y80.5118
G01 X23.8364 Y80.4931
G01 X23.8236 Y80.4817
G01 X23.8005 Y80.4598
G01 X17.6287 Y74.2925
G00 X17.6287 Y74.2925
G01 F250.00
G01 Z-0.8000
G01 F150.00
G01 X23.8005 Y80.4598
G01 X23.8236 Y80.4817
G01 X23.8364 Y80.4931
G01 X23.8592 Y80.5118
G01 X23.8729 Y80.5222
G01 X23.8990 Y80.5405
G01 X23.9134 Y80.5499
G01 X23.9387 Y80.5650
G01 X23.9537 Y80.5733
G01 X23.9703 Y80.5819
G01 X23.9978 Y80.5948
G01 X24.0250 Y80.6061
G01 X24.0411 Y80.6121
G01 X24.0714 Y80.6221
G01 X24.0879 Y80.6268
G01 X24.1165 Y80.6340
G01 X24.1333 Y80.6376
G01 X24.1647 Y80.6430
G01 X24.1964 Y80.6469
G01 X24.2282 Y80.6492
G01 X24.2596 Y80.6500
G01 X40.6396 Y80.6600
G01 X51.7863 Y80.6600
G00 X51.7863 Y80.6600
G01 F250.00
G01 Z-1.2000
G01 F150.00
G01 X40.6396 Y80.6600
G01 X24.2596 Y80.6500
G01 X24.2282 Y80.6492
G01 X24.1964 Y80.6469
G01 X24.1647 Y80.6430
G01 X24.1333 Y80.6376
G01 X24.1165 Y80.6340
G01 X24.0879 Y80.6268
G01 X24.0714 Y80.6221
G01 X24.0411 Y80.6121
G01 X24.0250 Y80.6061
G01 X23.9978 Y80.5948
G01 X23.9703 Y80.5819
G01 X23.9537 Y80.5733
G01 X23.9387 Y80.5650
G01 X23.9134 Y80.5499
G01 X23.8990 Y80.5405
G01 X23.8729 Y80.5222
G01 X23.8592 Y80.5118
G01 X23.8364 Y80.4931
G01 X23.8236 Y80.4817
G01 X23.8005 Y80.4598
G01 X17.6287 Y74.2925
G00 X17.6287 Y74.2925
G01 F250.00
G01 Z-1.6000
G01 F150.00
G01 X23.8005 Y80.4598
G01 X23.8236 Y80.4817
G01 X23.8364 Y80.4931
G01 X23.8592 Y80.5118
G01 X23.8729 Y80.5222
G01 X23.8990 Y80.5405
G01 X23.9134 Y80.5499
G01 X23.9387 Y80.5650
G01 X23.9537 Y80.5733
G01 X23.9703 Y80.5819
G01 X23.9978 Y80.5948
G01 X24.0250 Y80.6061
G01 X24.0411 Y80.6121
G01 X24.0714 Y80.6221
G01 X24.0879 Y80.6268
G01 X24.1165 Y80.6340
G01 X24.1333 Y80.6376
G01 X24.1647 Y80.6430
G01 X24.1964 Y80.6469
G01 X24.2282 Y80.6492
G01 X24.2596 Y80.6500
G01 X40.6396 Y80.6600
G01 X51.7863 Y80.6600
G00 X51.7863 Y80.6600
G01 F250.00
G01 Z-1.7000
G01 F150.00
G01 X40.6396 Y80.6600
G01 X24.2596 Y80.6500
G01 X24.2282 Y80.6492
G01 X24.1964 Y80.6469
G01 X24.1647 Y80.6430
G01 X24.1333 Y80.6376
G01 X24.1165 Y80.6340
G01 X24.0879 Y80.6268
G01 X24.0714 Y80.6221
G01 X24.0411 Y80.6121
G01 X24.0250 Y80.6061
G01 X23.9978 Y80.5948
G01 X23.9703 Y80.5819
G01 X23.9537 Y80.5733
G01 X23.9387 Y80.5650
G01 X23.9134 Y80.5499
G01 X23.8990 Y80.5405
G01 X23.8729 Y80.5222
G01 X23.8592 Y80.5118
G01 X23.8364 Y80.4931
G01 X23.8236 Y80.4817
G01 X23.8005 Y80.4598
G01 X17.6287 Y74.2925
G00 Z5.0000
G00 X16.4287 Y73.0934
G01 F250.00
G01 Z-0.4000
G01 F150.00
G01 X10.1405 Y66.8098
G01 X10.1232 Y66.7918
G01 X10.1029 Y66.7688
G01 X10.0920 Y66.7555
G01 X10.0734 Y66.7311
G01 X10.0635 Y66.7171
G01 X10.0468 Y66.6913
G01 X10.0380 Y66.6766
G01 X10.0232 Y66.6497
G01 X10.0092 Y66.6211
G01 X9.9994 Y66.5986
G01 X-0.6006 Y40.9886
G01 X-0.6069 Y40.9728
G01 X-0.6176 Y40.9427
G01 X-0.6268 Y40.9122
G01 X-0.6345 Y40.8812
G01 X-0.6407 Y40.8499
G01 X-0.6453 Y40.8183
G01 X-0.6483 Y40.7866
G01 X-0.6498 Y40.7572
G01 X-0.6500 Y40.7400
G01 X-0.6498 Y-0.0147
G01 X-0.6483 Y-0.0466
G01 X-0.6453 Y-0.0783
G01 X-0.6407 Y-0.1099
G01 X-0.6345 Y-0.1412
G01 X-0.6268 Y-0.1722
G01 X-0.6176 Y-0.2027
G01 X-0.6069 Y-0.2328
G01 X-0.5947 Y-0.2623
G01 X-0.5819 Y-0.2897
G01 X-0.5662 Y-0.3193
G01 X-0.5498 Y-0.3467
G01 X-0.5321 Y-0.3733
G01 X-0.5132 Y-0.3989
G01 X-0.4930 Y-0.4236
G01 X-0.4716 Y-0.4473
G01 X-0.4596 Y-0.4596
G01 X-0.4473 Y-0.4716
G01 X-0.4255 Y-0.4914
G01 X-0.4009 Y-0.5117
G01 X-0.3753 Y-0.5307
G01 X-0.3488 Y-0.5485
G01 X-0.3215 Y-0.5650
G01 X-0.2933 Y-0.5801
G01 X-0.2645 Y-0.5937
G01 X-0.2420 Y-0.6033
G01 X-0.2051 Y-0.6168
G01 X-0.1745 Y-0.6261
G01 X-0.1436 Y-0.6339
G01 X-0.1274 Y-0.6374
G01 X-0.1099 Y-0.6407
G01 X-0.0783 Y-0.6453
G01 X-0.0466 Y-0.6483
G01 X-0.0172 Y-0.6498
G01 X-0.0000 Y-0.6500
G00 X-0.0000 Y-0.6500
G01 F250.00
G01 Z-0.8000
G01 F150.00
G01 X-0.0172 Y-0.6498
G01 X-0.0466 Y-0.6483
G01 X-0.0783 Y-0.6453
G01 X-0.1099 Y-0.6407
G01 X-0.1274 Y-0.6374
G01 X-0.1436 Y-0.6339
G01 X-0.1745 Y-0.6261
G01 X-0.2051 Y-0.6168
G01 X-0.2420 Y-0.6033
G01 X-0.2645 Y-0.5937
G01 X-0.2933 Y-0.5801
G01 X-0.3215 Y-0.5650
G01 X-0.3488 Y-0.5485
G01 X-0.3753 Y-0.5307
G01 X-0.4009 Y-0.5117
G01 X-0.4255 Y-0.4914
G01 X-0.4473 Y-0.4716
G01 X-0.4596 Y-0.4596
G01 X-0.4716 Y-0.4473
G01 X-0.4930 Y-0.4236
G01 X-0.5132 Y-0.3989
G01 X-0.5321 Y-0.3733
G01 X-0.5498 Y-0.3467
G01 X-0.5662 Y-0.3193
G01 X-0.5819 Y-0.2897
G01 X-0.5947 Y-0.2623
G01 X-0.6069 Y-0.2328
G01 X-0.6176 Y-0.2027
G01 X-0.6268 Y-0.1722
G01 X-0.6345 Y-0.1412
G01 X-0.6407 Y-0.1099
G01 X-0.6453 Y-0.0783
G01 X-0.6483 Y-0.0466
G01 X-0.6498 Y-0.0147
G01 X-0.6500 Y40.7400
G01 X-0.6498 Y40.7572
G01 X-0.6483 Y40.7866
G01 X-0.6453 Y40.8183
G01 X-0.6407 Y40.8499
G01 X-0.6345 Y40.8812
G01 X-0.6268 Y40.9122
G01 X-0.6176 Y40.9427
G01 X-0.6069 Y40.9728
G01 X-0.6006 Y40.9886
G01 X9.9994 Y66.5986
G01 X10.0092 Y66.6211
G01 X10.0232 Y66.6497
G01 X10.0380 Y66.6766
G01 X10.0468 Y66.6913
G01 X10.0635 Y66.7171
G01 X10.0734 Y66.7311
G01 X10.0920 Y66.7555
G01 X10.1029 Y66.7688
G01 X10.1232 Y66.7918
G01 X10.1405 Y66.8098
G01 X16.4287 Y73.0934
G00 X16.4287 Y73.0934
G01 F250.00
G01 Z-1.2000
G01 F150.00
G01 X10.1405 Y66.8098
G01 X10.1232 Y66.7918
G01 X10.1029 Y66.7688
G01 X10.0920 Y66.7555
G01 X10.0734 Y66.7311
G01 X10.0635 Y66.7171
G01 X10.0468 Y66.6913
G01 X10.0380 Y66.6766
G01 X10.0232 Y66.6497
G01 X10.0092 Y66.6211
G01 X9.9994 Y66.5986
G01 X-0.6006 Y40.9886
G01 X-0.6069 Y40.9728
G01 X-0.6176 Y40.9427
G01 X-0.6268 Y40.9122
G01 X-0.6345 Y40.8812
G01 X-0.6407 Y40.8499
G01 X-0.6453 Y40.8183
G01 X-0.6483 Y40.7866
G01 X-0.6498 Y40.7572
G01 X-0.6500 Y40.7400
G01 X-0.6498 Y-0.0147
G01 X-0.6483 Y-0.0466
G01 X-0.6453 Y-0.0783
G01 X-0.6407 Y-0.1099
G01 X-0.6345 Y-0.1412
G01 X-0.6268 Y-0.1722
G01 X-0.6176 Y-0.2027
G01 X-0.6069 Y-0.2328
G01 X-0.5947 Y-0.2623
G01 X-0.5819 Y-0.2897
G01 X-0.5662 Y-0.3193
G01 X-0.5498 Y-0.3467
G01 X-0.5321 Y-0.3733
G01 X-0.5132 Y-0.3989
G01 X-0.4930 Y-0.4236
G01 X-0.4716 Y-0.4473
G01 X-0.4596 Y-0.4596
G01 X-0.4473 Y-0.4716
G01 X-0.4255 Y-0.4914
G01 X-0.4009 Y-0.5117
G01 X-0.3753 Y-0.5307
G01 X-0.3488 Y-0.5485
G01 X-0.3215 Y-0.5650
G01 X-0.2933 Y-0.5801
G01 X-0.2645 Y-0.5937
G01 X-0.2420 Y-0.6033
G01 X-0.2051 Y-0.6168
G01 X-0.1745 Y-0.6261
G01 X-0.1436 Y-0.6339
G01 X-0.1274 Y-0.6374
G01 X-0.1099 Y-0.6407
G01 X-0.0783 Y-0.6453
G01 X-0.0466 Y-0.6483
G01 X-0.0172 Y-0.6498
G01 X-0.0000 Y-0.6500
G00 X-0.0000 Y-0.6500
G01 F250.00
G01 Z-1.6000
G01 F150.00
G01 X-0.0172 Y-0.6498
G01 X-0.0466 Y-0.6483
G01 X-0.0783 Y-0.6453
G01 X-0.1099 Y-0.6407
G01 X-0.1274 Y-0.6374
G01 X-0.1436 Y-0.6339
G01 X-0.1745 Y-0.6261
G01 X-0.2051 Y-0.6168
G01 X-0.2420 Y-0.6033
G01 X-0.2645 Y-0.5937
G01 X-0.2933 Y-0.5801
G01 X-0.3215 Y-0.5650
G01 X-0.3488 Y-0.5485
G01 X-0.3753 Y-0.5307
G01 X-0.4009 Y-0.5117
G01 X-0.4255 Y-0.4914
G01 X-0.4473 Y-0.4716
G01 X-0.4596 Y-0.4596
G01 X-0.4716 Y-0.4473
G01 X-0.4930 Y-0.4236
G01 X-0.5132 Y-0.3989
G01 X-0.5321 Y-0.3733
G01 X-0.5498 Y-0.3467
G01 X-0.5662 Y-0.3193
G01 X-0.5819 Y-0.2897
G01 X-0.5947 Y-0.2623
G01 X-0.6069 Y-0.2328
G01 X-0.6176 Y-0.2027
G01 X-0.6268 Y-0.1722
G01 X-0.6345 Y-0.1412
G01 X-0.6407 Y-0.1099
G01 X-0.6453 Y-0.0783
G01 X-0.6483 Y-0.0466
G01 X-0.6498 Y-0.0147
G01 X-0.6500 Y40.7400
G01 X-0.6498 Y40.7572
G01 X-0.6483 Y40.7866
G01 X-0.6453 Y40.8183
G01 X-0.6407 Y40.8499
G01 X-0.6345 Y40.8812
G01 X-0.6268 Y40.9122
G01 X-0.6176 Y40.9427
G01 X-0.6069 Y40.9728
G01 X-0.6006 Y40.9886
G01 X9.9994 Y66.5986
G01 X10.0092 Y66.6211
G01 X10.0232 Y66.6497
G01 X10.0380 Y66.6766
G01 X10.0468 Y66.6913
G01 X10.0635 Y66.7171
G01 X10.0734 Y66.7311
G01 X10.0920 Y66.7555
G01 X10.1029 Y66.7688
G01 X10.1232 Y66.7918
G01 X10.1405 Y66.8098
G01 X16.4287 Y73.0934
G00 X16.4287 Y73.0934
G01 F250.00
G01 Z-1.7000
G01 F150.00
G01 X10.1405 Y66.8098
G01 X10.1232 Y66.7918
G01 X10.1029 Y66.7688
G01 X10.0920 Y66.7555
G01 X10.0734 Y66.7311
G01 X10.0635 Y66.7171
G01 X10.0468 Y66.6913
G01 X10.0380 Y66.6766
G01 X10.0232 Y66.6497
G01 X10.0092 Y66.6211
G01 X9.9994 Y66.5986
G01 X-0.6006 Y40.9886
G01 X-0.6069 Y40.9728
G01 X-0.6176 Y40.9427
G01 X-0.6268 Y40.9122
G01 X-0.6345 Y40.8812
G01 X-0.6407 Y40.8499
G01 X-0.6453 Y40.8183
G01 X-0.6483 Y40.7866
G01 X-0.6498 Y40.7572
G01 X-0.6500 Y40.7400
G01 X-0.6498 Y-0.0147
G01 X-0.6483 Y-0.0466
G01 X-0.6453 Y-0.0783
G01 X-0.6407 Y-0.1099
G01 X-0.6345 Y-0.1412
G01 X-0.6268 Y-0.1722
G01 X-0.6176 Y-0.2027
G01 X-0.6069 Y-0.2328
G01 X-0.5947 Y-0.2623
G01 X-0.5819 Y-0.2897
G01 X-0.5662 Y-0.3193
G01 X-0.5498 Y-0.3467
G01 X-0.5321 Y-0.3733
G01 X-0.5132 Y-0.3989
G01 X-0.4930 Y-0.4236
G01 X-0.4716 Y-0.4473
G01 X-0.4596 Y-0.4596
G01 X-0.4473 Y-0.4716
G01 X-0.4255 Y-0.4914
G01 X-0.4009 Y-0.5117
G01 X-0.3753 Y-0.5307
G01 X-0.3488 Y-0.5485
G01 X-0.3215 Y-0.5650
G01 X-0.2933 Y-0.5801
G01 X-0.2645 Y-0.5937
G01 X-0.2420 Y-0.6033
G01 X-0.2051 Y-0.6168
G01 X-0.1745 Y-0.6261
G01 X-0.1436 Y-0.6339
G01 X-0.1274 Y-0.6374
G01 X-0.1099 Y-0.6407
G01 X-0.0783 Y-0.6453
G01 X-0.0466 Y-0.6483
G01 X-0.0172 Y-0.6498
G01 X-0.0000 Y-0.6500
G00 Z5.0000
M05
G00 Z5.0000
G00 Z100.00
G00 X0.0 Y0.0

M02