(G-CODE GENERATED BY FLATCAM v8.98 - www.flatcam.org - Version Date: 2019/10/16)

(Name: TurnsCounter.drl_cnc_08)
(Type: G-code from Excellon)
(Units: MM)

(Created on Monday, 22 August 2022 at 18:49)

(Feedrate: 250.0 mm/min)
(Feedrate rapids 800.0009 mm/min)

(Z_Cut: -2.0 mm)
(Z_Move: 5.0 mm)
(Z Toolchange: 100.0 mm)
(X,Y Toolchange: 0.0000, 0.0000 mm)
(Z Start: None mm)
(Z End: 100.0 mm)
(Steps per circle: 128)
(Postprocessor Excellon: default)

(X range:    3.3100 ...   67.1750  mm)
(Y range:    1.4100 ...   78.6050  mm)

(Spindle Speed: 15000.0 RPM)

G21
G90
G94

G01 F250.00
G00 Z5.0000

M03 S15000.0
G00 X8.6620 Y4.5640
G01 Z-2.0000
G01 Z0
G00 Z5.0000
G00 X8.6620 Y2.0640
G01 Z-2.0000
G01 Z0
G00 Z5.0000
G00 X16.1550 Y1.8100
G01 Z-2.0000
G01 Z0
G00 Z5.0000
G00 X18.6950 Y4.3500
G01 Z-2.0000
G01 Z0
G00 Z5.0000
G00 X24.4100 Y4.9450
G01 Z-2.0000
G01 Z0
G00 Z5.0000
G00 X24.4100 Y2.4450
G01 Z-2.0000
G01 Z0
G00 Z5.0000
G00 X57.7850 Y5.7200
G01 Z-2.0000
G01 Z0
G00 Z5.0000
G00 X57.7850 Y8.2200
G01 Z-2.0000
G01 Z0
G00 Z5.0000
G00 X57.7850 Y10.7200
G01 Z-2.0000
G01 Z0
G00 Z5.0000
G00 X57.7850 Y13.2200
G01 Z-2.0000
G01 Z0
G00 Z5.0000
G00 X57.7850 Y15.7200
G01 Z-2.0000
G01 Z0
G00 Z5.0000
G00 X57.7850 Y18.2200
G01 Z-2.0000
G01 Z0
G00 Z5.0000
G00 X57.7850 Y20.7200
G01 Z-2.0000
G01 Z0
G00 Z5.0000
G00 X57.7850 Y23.2200
G01 Z-2.0000
G01 Z0
G00 Z5.0000
G00 X57.7850 Y25.7200
G01 Z-2.0000
G01 Z0
G00 Z5.0000
G00 X57.7850 Y28.2200
G01 Z-2.0000
G01 Z0
G00 Z5.0000
G00 X57.7850 Y30.7200
G01 Z-2.0000
G01 Z0
G00 Z5.0000
G00 X57.7850 Y33.2200
G01 Z-2.0000
G01 Z0
G00 Z5.0000
G00 X57.7850 Y35.7200
G01 Z-2.0000
G01 Z0
G00 Z5.0000
G00 X57.7850 Y38.2200
G01 Z-2.0000
G01 Z0
G00 Z5.0000
G00 X57.7850 Y40.7200
G01 Z-2.0000
G01 Z0
G00 Z5.0000
G00 X57.7850 Y43.2200
G01 Z-2.0000
G01 Z0
G00 Z5.0000
G00 X57.7850 Y45.7200
G01 Z-2.0000
G01 Z0
G00 Z5.0000
G00 X35.4950 Y59.6900
G01 Z-2.0000
G01 Z0
G00 Z5.0000
G00 X32.9950 Y59.6900
G01 Z-2.0000
G01 Z0
G00 Z5.0000
G00 X33.0650 Y54.5950
G01 Z-2.0000
G01 Z0
G00 Z5.0000
G00 X35.6050 Y52.0550
G01 Z-2.0000
G01 Z0
G00 Z5.0000
G00 X33.0650 Y49.5150
G01 Z-2.0000
G01 Z0
G00 Z5.0000
G00 X16.1550 Y6.8900
G01 Z-2.0000
G01 Z0
G00 Z5.0000
M05
G00 Z100.00
G00 X0.0 Y0.0

M02