(G-CODE GENERATED BY FLATCAM v8.98 - www.flatcam.org - Version Date: 2019/10/16)

(Name: TurnsCounter.drl_cnc_06)
(Type: G-code from Excellon)
(Units: MM)

(Created on Monday, 22 August 2022 at 18:47)

(Feedrate: 250.0 mm/min)
(Feedrate rapids 800.0009 mm/min)

(Z_Cut: -2.0 mm)
(Z_Move: 5.0 mm)
(Z Toolchange: 100.0 mm)
(X,Y Toolchange: 0.0000, 0.0000 mm)
(Z Start: None mm)
(Z End: 100.0 mm)
(Steps per circle: 128)
(Postprocessor Excellon: default)

(X range:    3.3100 ...   67.1750  mm)
(Y range:    1.4100 ...   78.6050  mm)

(Spindle Speed: 15000.0 RPM)

G21
G90
G94

G01 F250.00
G00 Z5.0000

M03 S15000.0
G00 X8.2550 Y29.2100
G01 Z-2.0000
G01 Z0
G00 Z5.0000
G00 X12.0650 Y28.5750
G01 Z-2.0000
G01 Z0
G00 Z5.0000
G00 X15.8750 Y29.2100
G01 Z-2.0000
G01 Z0
G00 Z5.0000
G00 X19.0500 Y29.2100
G01 Z-2.0000
G01 Z0
G00 Z5.0000
G00 X29.8450 Y28.5750
G01 Z-2.0000
G01 Z0
G00 Z5.0000
G00 X22.8600 Y34.2900
G01 Z-2.0000
G01 Z0
G00 Z5.0000
G00 X22.8600 Y38.7350
G01 Z-2.0000
G01 Z0
G00 Z5.0000
G00 X13.9700 Y44.4500
G01 Z-2.0000
G01 Z0
G00 Z5.0000
G00 X15.8750 Y68.5800
G01 Z-2.0000
G01 Z0
G00 Z5.0000
G00 X31.7500 Y51.4350
G01 Z-2.0000
G01 Z0
G00 Z5.0000
G00 X35.5600 Y47.6250
G01 Z-2.0000
G01 Z0
G00 Z5.0000
G00 X38.7500 Y62.8650
G01 Z-2.0000
G01 Z0
G00 Z5.0000
G00 X42.5450 Y74.9300
G01 Z-2.0000
G01 Z0
G00 Z5.0000
G00 X47.6250 Y74.9300
G01 Z-2.0000
G01 Z0
G00 Z5.0000
G00 X55.8800 Y74.9300
G01 Z-2.0000
G01 Z0
G00 Z5.0000
G00 X60.9600 Y45.7200
G01 Z-2.0000
G01 Z0
G00 Z5.0000
G00 X63.5000 Y43.1800
G01 Z-2.0000
G01 Z0
G00 Z5.0000
G00 X60.8800 Y40.7200
G01 Z-2.0000
G01 Z0
G00 Z5.0000
G00 X63.5000 Y38.1000
G01 Z-2.0000
G01 Z0
G00 Z5.0000
G00 X60.9600 Y35.5600
G01 Z-2.0000
G01 Z0
G00 Z5.0000
G00 X63.5000 Y33.0200
G01 Z-2.0000
G01 Z0
G00 Z5.0000
G00 X60.9600 Y30.4800
G01 Z-2.0000
G01 Z0
G00 Z5.0000
G00 X63.5000 Y27.9400
G01 Z-2.0000
G01 Z0
G00 Z5.0000
G00 X60.9600 Y25.4000
G01 Z-2.0000
G01 Z0
G00 Z5.0000
G00 X63.5000 Y22.8600
G01 Z-2.0000
G01 Z0
G00 Z5.0000
G00 X60.9600 Y20.3200
G01 Z-2.0000
G01 Z0
G00 Z5.0000
G00 X63.5000 Y17.7800
G01 Z-2.0000
G01 Z0
G00 Z5.0000
G00 X60.9600 Y15.2400
G01 Z-2.0000
G01 Z0
G00 Z5.0000
G00 X63.5000 Y12.7000
G01 Z-2.0000
G01 Z0
G00 Z5.0000
G00 X63.5000 Y7.6200
G01 Z-2.0000
G01 Z0
G00 Z5.0000
G00 X60.9600 Y10.1600
G01 Z-2.0000
G01 Z0
G00 Z5.0000
G00 X26.6700 Y16.5100
G01 Z-2.0000
G01 Z0
G00 Z5.0000
G00 X26.0350 Y12.7000
G01 Z-2.0000
G01 Z0
G00 Z5.0000
G00 X19.0500 Y17.1450
G01 Z-2.0000
G01 Z0
G00 Z5.0000
G00 X15.8750 Y25.4000
G01 Z-2.0000
G01 Z0
G00 Z5.0000
M05
G00 Z100.00
G00 X0.0 Y0.0

M02