(G-CODE GENERATED BY FLATCAM v8.98 - www.flatcam.org - Version Date: 2019/10/16)

(Name: TurnsCounter-Edge_Cuts.gbr_iso_cnc_2)
(Type: G-code from Geometry)
(Units: MM)

(Created on Monday, 22 August 2022 at 20:54)

(TOOL DIAMETER: 1.0 mm)
(Feedrate: 150.0 mm/min)
(Feedrate_Z: 250.0 mm/min)
(Feedrate rapids 80.0 mm/min)

(Z_Cut: -1.7 mm)
(DepthPerCut: 0.4 mm <=>5 passes)
(Z_Move: 5.0 mm)
(Z Toolchange: 100.0 mm)
(X,Y Toolchange: 0.0000, 0.0000 mm)
(Z Start: None mm)
(Z End: 100.0 mm)
(Steps per circle: 128)
(Postprocessor Geometry: default)

(X range:   -0.1000 ...   69.3150  mm)
(Y range:   -0.1000 ...   80.1100  mm)

(Spindle Speed: 15000 RPM)

G21
G90
G94

G01 F150.00
G00 Z5.0000

M03 S15000
G00 X-0.1000 Y-0.0012
G01 F250.00
G01 Z-0.4000
G01 F150.00
G01 X-0.0994 Y-0.0107
G01 X-0.0981 Y-0.0196
G01 X-0.0961 Y-0.0279
G01 X-0.0926 Y-0.0377
G01 X-0.0888 Y-0.0461
G01 X-0.0838 Y-0.0545
G01 X-0.0781 Y-0.0625
G01 X-0.0707 Y-0.0707
G01 X-0.0625 Y-0.0781
G01 X-0.0545 Y-0.0838
G01 X-0.0461 Y-0.0888
G01 X-0.0377 Y-0.0926
G01 X-0.0279 Y-0.0961
G01 X-0.0196 Y-0.0981
G01 X-0.0110 Y-0.0994
G01 X-0.0000 Y-0.1000
G01 X40.0000 Y-0.1000
G01 X40.0135 Y-0.0991
G01 X40.0196 Y-0.0981
G01 X40.0279 Y-0.0961
G01 X40.0394 Y-0.0919
G01 X40.0461 Y-0.0888
G01 X40.0523 Y-0.0853
G01 X40.0586 Y-0.0811
G01 X40.0642 Y-0.0767
G01 X40.0733 Y-0.0681
G01 X40.0781 Y-0.0625
G01 X40.0825 Y-0.0566
G01 X40.0864 Y-0.0504
G01 X40.0899 Y-0.0437
G01 X40.0946 Y-0.0325
G01 X40.0973 Y-0.0231
G01 X40.0994 Y-0.0110
G01 X40.1000 Y-0.0000
G01 X40.1000 Y80.0000
G01 X40.0991 Y80.0135
G01 X40.0981 Y80.0196
G01 X40.0961 Y80.0279
G01 X40.0919 Y80.0394
G01 X40.0888 Y80.0461
G01 X40.0853 Y80.0523
G01 X40.0811 Y80.0586
G01 X40.0767 Y80.0642
G01 X40.0681 Y80.0733
G01 X40.0625 Y80.0781
G01 X40.0566 Y80.0825
G01 X40.0504 Y80.0864
G01 X40.0438 Y80.0899
G01 X40.0325 Y80.0946
G01 X40.0231 Y80.0973
G01 X40.0110 Y80.0994
G01 X40.0000 Y80.1000
G01 X24.2600 Y80.1000
G01 X24.2490 Y80.0994
G01 X24.2369 Y80.0973
G01 X24.2263 Y80.0942
G01 X24.2173 Y80.0904
G01 X24.2097 Y80.0864
G01 X24.2034 Y80.0825
G01 X24.1966 Y80.0773
G01 X24.1893 Y80.0708
G01 X10.5293 Y66.4208
G01 X10.5235 Y66.4144
G01 X10.5189 Y66.4085
G01 X10.5142 Y66.4015
G01 X10.5106 Y66.3948
G01 X10.5054 Y66.3824
G01 X10.5034 Y66.3760
G01 X10.5017 Y66.3682
G01 X10.5006 Y66.3609
G01 X10.5001 Y66.3537
G01 X10.5000 Y66.3464
G01 X10.5006 Y66.3393
G01 X10.5027 Y66.3269
G01 X10.5047 Y66.3197
G01 X10.5072 Y66.3128
G01 X10.5106 Y66.3051
G01 X10.5136 Y66.2995
G01 X10.5176 Y66.2933
G01 X10.5220 Y66.2874
G01 X10.5276 Y66.2810
G01 X11.0239 Y65.7608
G01 X11.4930 Y65.2192
G01 X11.9355 Y64.6557
G01 X12.3504 Y64.0715
G01 X12.7367 Y63.4681
G01 X13.0936 Y62.8468
G01 X13.4202 Y62.2091
G01 X13.7158 Y61.5564
G01 X13.9796 Y60.8902
G01 X14.2112 Y60.2122
G01 X14.4098 Y59.5237
G01 X14.5751 Y58.8266
G01 X14.7067 Y58.1223
G01 X14.8043 Y57.4124
G01 X14.8677 Y56.6987
G01 X14.8966 Y55.9828
G01 X14.8911 Y55.2663
G01 X14.8512 Y54.5510
G01 X14.7769 Y53.8383
G01 X14.6685 Y53.1301
G01 X14.5261 Y52.4278
G01 X14.3501 Y51.7333
G01 X14.1410 Y51.0480
G01 X13.8991 Y50.3736
G01 X13.6251 Y49.7115
G01 X13.3195 Y49.0634
G01 X12.9832 Y48.4308
G01 X12.6168 Y47.8150
G01 X12.2213 Y47.2176
G01 X11.7975 Y46.6399
G01 X11.3464 Y46.0832
G01 X10.8691 Y45.5488
G01 X10.3666 Y45.0381
G01 X9.8401 Y44.5520
G01 X9.2909 Y44.0919
G01 X8.7202 Y43.6587
G01 X8.1294 Y43.2534
G01 X7.5197 Y42.8770
G01 X6.8926 Y42.5303
G01 X6.2496 Y42.2142
G01 X5.5922 Y41.9294
G01 X4.9218 Y41.6765
G01 X4.2400 Y41.4561
G01 X3.5484 Y41.2688
G01 X2.8486 Y41.1149
G01 X2.1423 Y40.9949
G01 X1.4309 Y40.9089
G01 X0.7163 Y40.8573
G01 X-0.0024 Y40.8400
G01 X-0.0110 Y40.8394
G01 X-0.0196 Y40.8381
G01 X-0.0279 Y40.8361
G01 X-0.0348 Y40.8338
G01 X-0.0437 Y40.8299
G01 X-0.0504 Y40.8264
G01 X-0.0566 Y40.8225
G01 X-0.0642 Y40.8167
G01 X-0.0699 Y40.8116
G01 X-0.0749 Y40.8063
G01 X-0.0802 Y40.7998
G01 X-0.0852 Y40.7925
G01 X-0.0888 Y40.7861
G01 X-0.0926 Y40.7777
G01 X-0.0953 Y40.7702
G01 X-0.0973 Y40.7631
G01 X-0.0987 Y40.7559
G01 X-0.0996 Y40.7486
G01 X-0.1000 Y40.7400
G01 X-0.1000 Y-0.0012
G00 X-0.1000 Y-0.0012
G01 F250.00
G01 Z-0.8000
G01 F150.00
G01 X-0.0994 Y-0.0107
G01 X-0.0981 Y-0.0196
G01 X-0.0961 Y-0.0279
G01 X-0.0926 Y-0.0377
G01 X-0.0888 Y-0.0461
G01 X-0.0838 Y-0.0545
G01 X-0.0781 Y-0.0625
G01 X-0.0707 Y-0.0707
G01 X-0.0625 Y-0.0781
G01 X-0.0545 Y-0.0838
G01 X-0.0461 Y-0.0888
G01 X-0.0377 Y-0.0926
G01 X-0.0279 Y-0.0961
G01 X-0.0196 Y-0.0981
G01 X-0.0110 Y-0.0994
G01 X-0.0000 Y-0.1000
G01 X40.0000 Y-0.1000
G01 X40.0135 Y-0.0991
G01 X40.0196 Y-0.0981
G01 X40.0279 Y-0.0961
G01 X40.0394 Y-0.0919
G01 X40.0461 Y-0.0888
G01 X40.0523 Y-0.0853
G01 X40.0586 Y-0.0811
G01 X40.0642 Y-0.0767
G01 X40.0733 Y-0.0681
G01 X40.0781 Y-0.0625
G01 X40.0825 Y-0.0566
G01 X40.0864 Y-0.0504
G01 X40.0899 Y-0.0437
G01 X40.0946 Y-0.0325
G01 X40.0973 Y-0.0231
G01 X40.0994 Y-0.0110
G01 X40.1000 Y-0.0000
G01 X40.1000 Y80.0000
G01 X40.0991 Y80.0135
G01 X40.0981 Y80.0196
G01 X40.0961 Y80.0279
G01 X40.0919 Y80.0394
G01 X40.0888 Y80.0461
G01 X40.0853 Y80.0523
G01 X40.0811 Y80.0586
G01 X40.0767 Y80.0642
G01 X40.0681 Y80.0733
G01 X40.0625 Y80.0781
G01 X40.0566 Y80.0825
G01 X40.0504 Y80.0864
G01 X40.0438 Y80.0899
G01 X40.0325 Y80.0946
G01 X40.0231 Y80.0973
G01 X40.0110 Y80.0994
G01 X40.0000 Y80.1000
G01 X24.2600 Y80.1000
G01 X24.2490 Y80.0994
G01 X24.2369 Y80.0973
G01 X24.2263 Y80.0942
G01 X24.2173 Y80.0904
G01 X24.2097 Y80.0864
G01 X24.2034 Y80.0825
G01 X24.1966 Y80.0773
G01 X24.1893 Y80.0708
G01 X10.5293 Y66.4208
G01 X10.5235 Y66.4144
G01 X10.5189 Y66.4085
G01 X10.5142 Y66.4015
G01 X10.5106 Y66.3948
G01 X10.5054 Y66.3824
G01 X10.5034 Y66.3760
G01 X10.5017 Y66.3682
G01 X10.5006 Y66.3609
G01 X10.5001 Y66.3537
G01 X10.5000 Y66.3464
G01 X10.5006 Y66.3393
G01 X10.5027 Y66.3269
G01 X10.5047 Y66.3197
G01 X10.5072 Y66.3128
G01 X10.5106 Y66.3051
G01 X10.5136 Y66.2995
G01 X10.5176 Y66.2933
G01 X10.5220 Y66.2874
G01 X10.5276 Y66.2810
G01 X11.0239 Y65.7608
G01 X11.4930 Y65.2192
G01 X11.9355 Y64.6557
G01 X12.3504 Y64.0715
G01 X12.7367 Y63.4681
G01 X13.0936 Y62.8468
G01 X13.4202 Y62.2091
G01 X13.7158 Y61.5564
G01 X13.9796 Y60.8902
G01 X14.2112 Y60.2122
G01 X14.4098 Y59.5237
G01 X14.5751 Y58.8266
G01 X14.7067 Y58.1223
G01 X14.8043 Y57.4124
G01 X14.8677 Y56.6987
G01 X14.8966 Y55.9828
G01 X14.8911 Y55.2663
G01 X14.8512 Y54.5510
G01 X14.7769 Y53.8383
G01 X14.6685 Y53.1301
G01 X14.5261 Y52.4278
G01 X14.3501 Y51.7333
G01 X14.1410 Y51.0480
G01 X13.8991 Y50.3736
G01 X13.6251 Y49.7115
G01 X13.3195 Y49.0634
G01 X12.9832 Y48.4308
G01 X12.6168 Y47.8150
G01 X12.2213 Y47.2176
G01 X11.7975 Y46.6399
G01 X11.3464 Y46.0832
G01 X10.8691 Y45.5488
G01 X10.3666 Y45.0381
G01 X9.8401 Y44.5520
G01 X9.2909 Y44.0919
G01 X8.7202 Y43.6587
G01 X8.1294 Y43.2534
G01 X7.5197 Y42.8770
G01 X6.8926 Y42.5303
G01 X6.2496 Y42.2142
G01 X5.5922 Y41.9294
G01 X4.9218 Y41.6765
G01 X4.2400 Y41.4561
G01 X3.5484 Y41.2688
G01 X2.8486 Y41.1149
G01 X2.1423 Y40.9949
G01 X1.4309 Y40.9089
G01 X0.7163 Y40.8573
G01 X-0.0024 Y40.8400
G01 X-0.0110 Y40.8394
G01 X-0.0196 Y40.8381
G01 X-0.0279 Y40.8361
G01 X-0.0348 Y40.8338
G01 X-0.0437 Y40.8299
G01 X-0.0504 Y40.8264
G01 X-0.0566 Y40.8225
G01 X-0.0642 Y40.8167
G01 X-0.0699 Y40.8116
G01 X-0.0749 Y40.8063
G01 X-0.0802 Y40.7998
G01 X-0.0852 Y40.7925
G01 X-0.0888 Y40.7861
G01 X-0.0926 Y40.7777
G01 X-0.0953 Y40.7702
G01 X-0.0973 Y40.7631
G01 X-0.0987 Y40.7559
G01 X-0.0996 Y40.7486
G01 X-0.1000 Y40.7400
G01 X-0.1000 Y-0.0012
G00 X-0.1000 Y-0.0012
G01 F250.00
G01 Z-1.2000
G01 F150.00
G01 X-0.0994 Y-0.0107
G01 X-0.0981 Y-0.0196
G01 X-0.0961 Y-0.0279
G01 X-0.0926 Y-0.0377
G01 X-0.0888 Y-0.0461
G01 X-0.0838 Y-0.0545
G01 X-0.0781 Y-0.0625
G01 X-0.0707 Y-0.0707
G01 X-0.0625 Y-0.0781
G01 X-0.0545 Y-0.0838
G01 X-0.0461 Y-0.0888
G01 X-0.0377 Y-0.0926
G01 X-0.0279 Y-0.0961
G01 X-0.0196 Y-0.0981
G01 X-0.0110 Y-0.0994
G01 X-0.0000 Y-0.1000
G01 X40.0000 Y-0.1000
G01 X40.0135 Y-0.0991
G01 X40.0196 Y-0.0981
G01 X40.0279 Y-0.0961
G01 X40.0394 Y-0.0919
G01 X40.0461 Y-0.0888
G01 X40.0523 Y-0.0853
G01 X40.0586 Y-0.0811
G01 X40.0642 Y-0.0767
G01 X40.0733 Y-0.0681
G01 X40.0781 Y-0.0625
G01 X40.0825 Y-0.0566
G01 X40.0864 Y-0.0504
G01 X40.0899 Y-0.0437
G01 X40.0946 Y-0.0325
G01 X40.0973 Y-0.0231
G01 X40.0994 Y-0.0110
G01 X40.1000 Y-0.0000
G01 X40.1000 Y80.0000
G01 X40.0991 Y80.0135
G01 X40.0981 Y80.0196
G01 X40.0961 Y80.0279
G01 X40.0919 Y80.0394
G01 X40.0888 Y80.0461
G01 X40.0853 Y80.0523
G01 X40.0811 Y80.0586
G01 X40.0767 Y80.0642
G01 X40.0681 Y80.0733
G01 X40.0625 Y80.0781
G01 X40.0566 Y80.0825
G01 X40.0504 Y80.0864
G01 X40.0438 Y80.0899
G01 X40.0325 Y80.0946
G01 X40.0231 Y80.0973
G01 X40.0110 Y80.0994
G01 X40.0000 Y80.1000
G01 X24.2600 Y80.1000
G01 X24.2490 Y80.0994
G01 X24.2369 Y80.0973
G01 X24.2263 Y80.0942
G01 X24.2173 Y80.0904
G01 X24.2097 Y80.0864
G01 X24.2034 Y80.0825
G01 X24.1966 Y80.0773
G01 X24.1893 Y80.0708
G01 X10.5293 Y66.4208
G01 X10.5235 Y66.4144
G01 X10.5189 Y66.4085
G01 X10.5142 Y66.4015
G01 X10.5106 Y66.3948
G01 X10.5054 Y66.3824
G01 X10.5034 Y66.3760
G01 X10.5017 Y66.3682
G01 X10.5006 Y66.3609
G01 X10.5001 Y66.3537
G01 X10.5000 Y66.3464
G01 X10.5006 Y66.3393
G01 X10.5027 Y66.3269
G01 X10.5047 Y66.3197
G01 X10.5072 Y66.3128
G01 X10.5106 Y66.3051
G01 X10.5136 Y66.2995
G01 X10.5176 Y66.2933
G01 X10.5220 Y66.2874
G01 X10.5276 Y66.2810
G01 X11.0239 Y65.7608
G01 X11.4930 Y65.2192
G01 X11.9355 Y64.6557
G01 X12.3504 Y64.0715
G01 X12.7367 Y63.4681
G01 X13.0936 Y62.8468
G01 X13.4202 Y62.2091
G01 X13.7158 Y61.5564
G01 X13.9796 Y60.8902
G01 X14.2112 Y60.2122
G01 X14.4098 Y59.5237
G01 X14.5751 Y58.8266
G01 X14.7067 Y58.1223
G01 X14.8043 Y57.4124
G01 X14.8677 Y56.6987
G01 X14.8966 Y55.9828
G01 X14.8911 Y55.2663
G01 X14.8512 Y54.5510
G01 X14.7769 Y53.8383
G01 X14.6685 Y53.1301
G01 X14.5261 Y52.4278
G01 X14.3501 Y51.7333
G01 X14.1410 Y51.0480
G01 X13.8991 Y50.3736
G01 X13.6251 Y49.7115
G01 X13.3195 Y49.0634
G01 X12.9832 Y48.4308
G01 X12.6168 Y47.8150
G01 X12.2213 Y47.2176
G01 X11.7975 Y46.6399
G01 X11.3464 Y46.0832
G01 X10.8691 Y45.5488
G01 X10.3666 Y45.0381
G01 X9.8401 Y44.5520
G01 X9.2909 Y44.0919
G01 X8.7202 Y43.6587
G01 X8.1294 Y43.2534
G01 X7.5197 Y42.8770
G01 X6.8926 Y42.5303
G01 X6.2496 Y42.2142
G01 X5.5922 Y41.9294
G01 X4.9218 Y41.6765
G01 X4.2400 Y41.4561
G01 X3.5484 Y41.2688
G01 X2.8486 Y41.1149
G01 X2.1423 Y40.9949
G01 X1.4309 Y40.9089
G01 X0.7163 Y40.8573
G01 X-0.0024 Y40.8400
G01 X-0.0110 Y40.8394
G01 X-0.0196 Y40.8381
G01 X-0.0279 Y40.8361
G01 X-0.0348 Y40.8338
G01 X-0.0437 Y40.8299
G01 X-0.0504 Y40.8264
G01 X-0.0566 Y40.8225
G01 X-0.0642 Y40.8167
G01 X-0.0699 Y40.8116
G01 X-0.0749 Y40.8063
G01 X-0.0802 Y40.7998
G01 X-0.0852 Y40.7925
G01 X-0.0888 Y40.7861
G01 X-0.0926 Y40.7777
G01 X-0.0953 Y40.7702
G01 X-0.0973 Y40.7631
G01 X-0.0987 Y40.7559
G01 X-0.0996 Y40.7486
G01 X-0.1000 Y40.7400
G01 X-0.1000 Y-0.0012
G00 X-0.1000 Y-0.0012
G01 F250.00
G01 Z-1.6000
G01 F150.00
G01 X-0.0994 Y-0.0107
G01 X-0.0981 Y-0.0196
G01 X-0.0961 Y-0.0279
G01 X-0.0926 Y-0.0377
G01 X-0.0888 Y-0.0461
G01 X-0.0838 Y-0.0545
G01 X-0.0781 Y-0.0625
G01 X-0.0707 Y-0.0707
G01 X-0.0625 Y-0.0781
G01 X-0.0545 Y-0.0838
G01 X-0.0461 Y-0.0888
G01 X-0.0377 Y-0.0926
G01 X-0.0279 Y-0.0961
G01 X-0.0196 Y-0.0981
G01 X-0.0110 Y-0.0994
G01 X-0.0000 Y-0.1000
G01 X40.0000 Y-0.1000
G01 X40.0135 Y-0.0991
G01 X40.0196 Y-0.0981
G01 X40.0279 Y-0.0961
G01 X40.0394 Y-0.0919
G01 X40.0461 Y-0.0888
G01 X40.0523 Y-0.0853
G01 X40.0586 Y-0.0811
G01 X40.0642 Y-0.0767
G01 X40.0733 Y-0.0681
G01 X40.0781 Y-0.0625
G01 X40.0825 Y-0.0566
G01 X40.0864 Y-0.0504
G01 X40.0899 Y-0.0437
G01 X40.0946 Y-0.0325
G01 X40.0973 Y-0.0231
G01 X40.0994 Y-0.0110
G01 X40.1000 Y-0.0000
G01 X40.1000 Y80.0000
G01 X40.0991 Y80.0135
G01 X40.0981 Y80.0196
G01 X40.0961 Y80.0279
G01 X40.0919 Y80.0394
G01 X40.0888 Y80.0461
G01 X40.0853 Y80.0523
G01 X40.0811 Y80.0586
G01 X40.0767 Y80.0642
G01 X40.0681 Y80.0733
G01 X40.0625 Y80.0781
G01 X40.0566 Y80.0825
G01 X40.0504 Y80.0864
G01 X40.0438 Y80.0899
G01 X40.0325 Y80.0946
G01 X40.0231 Y80.0973
G01 X40.0110 Y80.0994
G01 X40.0000 Y80.1000
G01 X24.2600 Y80.1000
G01 X24.2490 Y80.0994
G01 X24.2369 Y80.0973
G01 X24.2263 Y80.0942
G01 X24.2173 Y80.0904
G01 X24.2097 Y80.0864
G01 X24.2034 Y80.0825
G01 X24.1966 Y80.0773
G01 X24.1893 Y80.0708
G01 X10.5293 Y66.4208
G01 X10.5235 Y66.4144
G01 X10.5189 Y66.4085
G01 X10.5142 Y66.4015
G01 X10.5106 Y66.3948
G01 X10.5054 Y66.3824
G01 X10.5034 Y66.3760
G01 X10.5017 Y66.3682
G01 X10.5006 Y66.3609
G01 X10.5001 Y66.3537
G01 X10.5000 Y66.3464
G01 X10.5006 Y66.3393
G01 X10.5027 Y66.3269
G01 X10.5047 Y66.3197
G01 X10.5072 Y66.3128
G01 X10.5106 Y66.3051
G01 X10.5136 Y66.2995
G01 X10.5176 Y66.2933
G01 X10.5220 Y66.2874
G01 X10.5276 Y66.2810
G01 X11.0239 Y65.7608
G01 X11.4930 Y65.2192
G01 X11.9355 Y64.6557
G01 X12.3504 Y64.0715
G01 X12.7367 Y63.4681
G01 X13.0936 Y62.8468
G01 X13.4202 Y62.2091
G01 X13.7158 Y61.5564
G01 X13.9796 Y60.8902
G01 X14.2112 Y60.2122
G01 X14.4098 Y59.5237
G01 X14.5751 Y58.8266
G01 X14.7067 Y58.1223
G01 X14.8043 Y57.4124
G01 X14.8677 Y56.6987
G01 X14.8966 Y55.9828
G01 X14.8911 Y55.2663
G01 X14.8512 Y54.5510
G01 X14.7769 Y53.8383
G01 X14.6685 Y53.1301
G01 X14.5261 Y52.4278
G01 X14.3501 Y51.7333
G01 X14.1410 Y51.0480
G01 X13.8991 Y50.3736
G01 X13.6251 Y49.7115
G01 X13.3195 Y49.0634
G01 X12.9832 Y48.4308
G01 X12.6168 Y47.8150
G01 X12.2213 Y47.2176
G01 X11.7975 Y46.6399
G01 X11.3464 Y46.0832
G01 X10.8691 Y45.5488
G01 X10.3666 Y45.0381
G01 X9.8401 Y44.5520
G01 X9.2909 Y44.0919
G01 X8.7202 Y43.6587
G01 X8.1294 Y43.2534
G01 X7.5197 Y42.8770
G01 X6.8926 Y42.5303
G01 X6.2496 Y42.2142
G01 X5.5922 Y41.9294
G01 X4.9218 Y41.6765
G01 X4.2400 Y41.4561
G01 X3.5484 Y41.2688
G01 X2.8486 Y41.1149
G01 X2.1423 Y40.9949
G01 X1.4309 Y40.9089
G01 X0.7163 Y40.8573
G01 X-0.0024 Y40.8400
G01 X-0.0110 Y40.8394
G01 X-0.0196 Y40.8381
G01 X-0.0279 Y40.8361
G01 X-0.0348 Y40.8338
G01 X-0.0437 Y40.8299
G01 X-0.0504 Y40.8264
G01 X-0.0566 Y40.8225
G01 X-0.0642 Y40.8167
G01 X-0.0699 Y40.8116
G01 X-0.0749 Y40.8063
G01 X-0.0802 Y40.7998
G01 X-0.0852 Y40.7925
G01 X-0.0888 Y40.7861
G01 X-0.0926 Y40.7777
G01 X-0.0953 Y40.7702
G01 X-0.0973 Y40.7631
G01 X-0.0987 Y40.7559
G01 X-0.0996 Y40.7486
G01 X-0.1000 Y40.7400
G01 X-0.1000 Y-0.0012
G00 X-0.1000 Y-0.0012
G01 F250.00
G01 Z-1.7000
G01 F150.00
G01 X-0.0994 Y-0.0107
G01 X-0.0981 Y-0.0196
G01 X-0.0961 Y-0.0279
G01 X-0.0926 Y-0.0377
G01 X-0.0888 Y-0.0461
G01 X-0.0838 Y-0.0545
G01 X-0.0781 Y-0.0625
G01 X-0.0707 Y-0.0707
G01 X-0.0625 Y-0.0781
G01 X-0.0545 Y-0.0838
G01 X-0.0461 Y-0.0888
G01 X-0.0377 Y-0.0926
G01 X-0.0279 Y-0.0961
G01 X-0.0196 Y-0.0981
G01 X-0.0110 Y-0.0994
G01 X-0.0000 Y-0.1000
G01 X40.0000 Y-0.1000
G01 X40.0135 Y-0.0991
G01 X40.0196 Y-0.0981
G01 X40.0279 Y-0.0961
G01 X40.0394 Y-0.0919
G01 X40.0461 Y-0.0888
G01 X40.0523 Y-0.0853
G01 X40.0586 Y-0.0811
G01 X40.0642 Y-0.0767
G01 X40.0733 Y-0.0681
G01 X40.0781 Y-0.0625
G01 X40.0825 Y-0.0566
G01 X40.0864 Y-0.0504
G01 X40.0899 Y-0.0437
G01 X40.0946 Y-0.0325
G01 X40.0973 Y-0.0231
G01 X40.0994 Y-0.0110
G01 X40.1000 Y-0.0000
G01 X40.1000 Y80.0000
G01 X40.0991 Y80.0135
G01 X40.0981 Y80.0196
G01 X40.0961 Y80.0279
G01 X40.0919 Y80.0394
G01 X40.0888 Y80.0461
G01 X40.0853 Y80.0523
G01 X40.0811 Y80.0586
G01 X40.0767 Y80.0642
G01 X40.0681 Y80.0733
G01 X40.0625 Y80.0781
G01 X40.0566 Y80.0825
G01 X40.0504 Y80.0864
G01 X40.0438 Y80.0899
G01 X40.0325 Y80.0946
G01 X40.0231 Y80.0973
G01 X40.0110 Y80.0994
G01 X40.0000 Y80.1000
G01 X24.2600 Y80.1000
G01 X24.2490 Y80.0994
G01 X24.2369 Y80.0973
G01 X24.2263 Y80.0942
G01 X24.2173 Y80.0904
G01 X24.2097 Y80.0864
G01 X24.2034 Y80.0825
G01 X24.1966 Y80.0773
G01 X24.1893 Y80.0708
G01 X10.5293 Y66.4208
G01 X10.5235 Y66.4144
G01 X10.5189 Y66.4085
G01 X10.5142 Y66.4015
G01 X10.5106 Y66.3948
G01 X10.5054 Y66.3824
G01 X10.5034 Y66.3760
G01 X10.5017 Y66.3682
G01 X10.5006 Y66.3609
G01 X10.5001 Y66.3537
G01 X10.5000 Y66.3464
G01 X10.5006 Y66.3393
G01 X10.5027 Y66.3269
G01 X10.5047 Y66.3197
G01 X10.5072 Y66.3128
G01 X10.5106 Y66.3051
G01 X10.5136 Y66.2995
G01 X10.5176 Y66.2933
G01 X10.5220 Y66.2874
G01 X10.5276 Y66.2810
G01 X11.0239 Y65.7608
G01 X11.4930 Y65.2192
G01 X11.9355 Y64.6557
G01 X12.3504 Y64.0715
G01 X12.7367 Y63.4681
G01 X13.0936 Y62.8468
G01 X13.4202 Y62.2091
G01 X13.7158 Y61.5564
G01 X13.9796 Y60.8902
G01 X14.2112 Y60.2122
G01 X14.4098 Y59.5237
G01 X14.5751 Y58.8266
G01 X14.7067 Y58.1223
G01 X14.8043 Y57.4124
G01 X14.8677 Y56.6987
G01 X14.8966 Y55.9828
G01 X14.8911 Y55.2663
G01 X14.8512 Y54.5510
G01 X14.7769 Y53.8383
G01 X14.6685 Y53.1301
G01 X14.5261 Y52.4278
G01 X14.3501 Y51.7333
G01 X14.1410 Y51.0480
G01 X13.8991 Y50.3736
G01 X13.6251 Y49.7115
G01 X13.3195 Y49.0634
G01 X12.9832 Y48.4308
G01 X12.6168 Y47.8150
G01 X12.2213 Y47.2176
G01 X11.7975 Y46.6399
G01 X11.3464 Y46.0832
G01 X10.8691 Y45.5488
G01 X10.3666 Y45.0381
G01 X9.8401 Y44.5520
G01 X9.2909 Y44.0919
G01 X8.7202 Y43.6587
G01 X8.1294 Y43.2534
G01 X7.5197 Y42.8770
G01 X6.8926 Y42.5303
G01 X6.2496 Y42.2142
G01 X5.5922 Y41.9294
G01 X4.9218 Y41.6765
G01 X4.2400 Y41.4561
G01 X3.5484 Y41.2688
G01 X2.8486 Y41.1149
G01 X2.1423 Y40.9949
G01 X1.4309 Y40.9089
G01 X0.7163 Y40.8573
G01 X-0.0024 Y40.8400
G01 X-0.0110 Y40.8394
G01 X-0.0196 Y40.8381
G01 X-0.0279 Y40.8361
G01 X-0.0348 Y40.8338
G01 X-0.0437 Y40.8299
G01 X-0.0504 Y40.8264
G01 X-0.0566 Y40.8225
G01 X-0.0642 Y40.8167
G01 X-0.0699 Y40.8116
G01 X-0.0749 Y40.8063
G01 X-0.0802 Y40.7998
G01 X-0.0852 Y40.7925
G01 X-0.0888 Y40.7861
G01 X-0.0926 Y40.7777
G01 X-0.0953 Y40.7702
G01 X-0.0973 Y40.7631
G01 X-0.0987 Y40.7559
G01 X-0.0996 Y40.7486
G01 X-0.1000 Y40.7400
G01 X-0.1000 Y-0.0012
G00 Z5.0000
G00 X0.1000 Y0.1000
G01 F250.00
G01 Z-0.4000
G01 F150.00
G01 X39.9000 Y0.1000
G01 X39.9000 Y79.9000
G01 X24.3014 Y79.9000
G01 X10.7398 Y66.3483
G01 X11.1727 Y65.8945
G01 X11.6481 Y65.3456
G01 X12.0950 Y64.7764
G01 X12.5149 Y64.1854
G01 X12.9090 Y63.5698
G01 X13.2689 Y62.9433
G01 X13.5994 Y62.2981
G01 X13.9009 Y61.6323
G01 X14.1678 Y60.9583
G01 X14.4016 Y60.2734
G01 X14.6039 Y59.5722
G01 X14.7706 Y58.8692
G01 X14.9038 Y58.1566
G01 X15.0034 Y57.4325
G01 X15.0674 Y56.7104
G01 X15.0966 Y55.9873
G01 X15.0910 Y55.2576
G01 X15.0505 Y54.5338
G01 X14.9755 Y53.8140
G01 X14.8650 Y53.0927
G01 X14.7209 Y52.3822
G01 X14.5431 Y51.6807
G01 X14.3301 Y50.9827
G01 X14.0862 Y50.3026
G01 X13.8090 Y49.6328
G01 X13.4973 Y48.9716
G01 X13.1570 Y48.3316
G01 X12.7869 Y47.7096
G01 X12.3840 Y47.1012
G01 X11.9552 Y46.5167
G01 X11.4995 Y45.9544
G01 X11.0134 Y45.4103
G01 X10.5049 Y44.8935
G01 X9.9732 Y44.4026
G01 X9.4138 Y43.9340
G01 X8.8363 Y43.4957
G01 X8.2395 Y43.0864
G01 X7.6186 Y42.7031
G01 X6.9841 Y42.3524
G01 X6.3346 Y42.0331
G01 X5.6650 Y41.7430
G01 X4.9867 Y41.4873
G01 X4.2981 Y41.2647
G01 X3.5937 Y41.0739
G01 X2.8857 Y40.9183
G01 X2.1722 Y40.7971
G01 X1.4478 Y40.7096
G01 X0.7271 Y40.6575
G01 X0.1000 Y40.6423
G01 X0.1000 Y0.1000
G00 X0.1000 Y0.1000
G01 F250.00
G01 Z-0.8000
G01 F150.00
G01 X39.9000 Y0.1000
G01 X39.9000 Y79.9000
G01 X24.3014 Y79.9000
G01 X10.7398 Y66.3483
G01 X11.1727 Y65.8945
G01 X11.6481 Y65.3456
G01 X12.0950 Y64.7764
G01 X12.5149 Y64.1854
G01 X12.9090 Y63.5698
G01 X13.2689 Y62.9433
G01 X13.5994 Y62.2981
G01 X13.9009 Y61.6323
G01 X14.1678 Y60.9583
G01 X14.4016 Y60.2734
G01 X14.6039 Y59.5722
G01 X14.7706 Y58.8692
G01 X14.9038 Y58.1566
G01 X15.0034 Y57.4325
G01 X15.0674 Y56.7104
G01 X15.0966 Y55.9873
G01 X15.0910 Y55.2576
G01 X15.0505 Y54.5338
G01 X14.9755 Y53.8140
G01 X14.8650 Y53.0927
G01 X14.7209 Y52.3822
G01 X14.5431 Y51.6807
G01 X14.3301 Y50.9827
G01 X14.0862 Y50.3026
G01 X13.8090 Y49.6328
G01 X13.4973 Y48.9716
G01 X13.1570 Y48.3316
G01 X12.7869 Y47.7096
G01 X12.3840 Y47.1012
G01 X11.9552 Y46.5167
G01 X11.4995 Y45.9544
G01 X11.0134 Y45.4103
G01 X10.5049 Y44.8935
G01 X9.9732 Y44.4026
G01 X9.4138 Y43.9340
G01 X8.8363 Y43.4957
G01 X8.2395 Y43.0864
G01 X7.6186 Y42.7031
G01 X6.9841 Y42.3524
G01 X6.3346 Y42.0331
G01 X5.6650 Y41.7430
G01 X4.9867 Y41.4873
G01 X4.2981 Y41.2647
G01 X3.5937 Y41.0739
G01 X2.8857 Y40.9183
G01 X2.1722 Y40.7971
G01 X1.4478 Y40.7096
G01 X0.7271 Y40.6575
G01 X0.1000 Y40.6423
G01 X0.1000 Y0.1000
G00 X0.1000 Y0.1000
G01 F250.00
G01 Z-1.2000
G01 F150.00
G01 X39.9000 Y0.1000
G01 X39.9000 Y79.9000
G01 X24.3014 Y79.9000
G01 X10.7398 Y66.3483
G01 X11.1727 Y65.8945
G01 X11.6481 Y65.3456
G01 X12.0950 Y64.7764
G01 X12.5149 Y64.1854
G01 X12.9090 Y63.5698
G01 X13.2689 Y62.9433
G01 X13.5994 Y62.2981
G01 X13.9009 Y61.6323
G01 X14.1678 Y60.9583
G01 X14.4016 Y60.2734
G01 X14.6039 Y59.5722
G01 X14.7706 Y58.8692
G01 X14.9038 Y58.1566
G01 X15.0034 Y57.4325
G01 X15.0674 Y56.7104
G01 X15.0966 Y55.9873
G01 X15.0910 Y55.2576
G01 X15.0505 Y54.5338
G01 X14.9755 Y53.8140
G01 X14.8650 Y53.0927
G01 X14.7209 Y52.3822
G01 X14.5431 Y51.6807
G01 X14.3301 Y50.9827
G01 X14.0862 Y50.3026
G01 X13.8090 Y49.6328
G01 X13.4973 Y48.9716
G01 X13.1570 Y48.3316
G01 X12.7869 Y47.7096
G01 X12.3840 Y47.1012
G01 X11.9552 Y46.5167
G01 X11.4995 Y45.9544
G01 X11.0134 Y45.4103
G01 X10.5049 Y44.8935
G01 X9.9732 Y44.4026
G01 X9.4138 Y43.9340
G01 X8.8363 Y43.4957
G01 X8.2395 Y43.0864
G01 X7.6186 Y42.7031
G01 X6.9841 Y42.3524
G01 X6.3346 Y42.0331
G01 X5.6650 Y41.7430
G01 X4.9867 Y41.4873
G01 X4.2981 Y41.2647
G01 X3.5937 Y41.0739
G01 X2.8857 Y40.9183
G01 X2.1722 Y40.7971
G01 X1.4478 Y40.7096
G01 X0.7271 Y40.6575
G01 X0.1000 Y40.6423
G01 X0.1000 Y0.1000
G00 X0.1000 Y0.1000
G01 F250.00
G01 Z-1.6000
G01 F150.00
G01 X39.9000 Y0.1000
G01 X39.9000 Y79.9000
G01 X24.3014 Y79.9000
G01 X10.7398 Y66.3483
G01 X11.1727 Y65.8945
G01 X11.6481 Y65.3456
G01 X12.0950 Y64.7764
G01 X12.5149 Y64.1854
G01 X12.9090 Y63.5698
G01 X13.2689 Y62.9433
G01 X13.5994 Y62.2981
G01 X13.9009 Y61.6323
G01 X14.1678 Y60.9583
G01 X14.4016 Y60.2734
G01 X14.6039 Y59.5722
G01 X14.7706 Y58.8692
G01 X14.9038 Y58.1566
G01 X15.0034 Y57.4325
G01 X15.0674 Y56.7104
G01 X15.0966 Y55.9873
G01 X15.0910 Y55.2576
G01 X15.0505 Y54.5338
G01 X14.9755 Y53.8140
G01 X14.8650 Y53.0927
G01 X14.7209 Y52.3822
G01 X14.5431 Y51.6807
G01 X14.3301 Y50.9827
G01 X14.0862 Y50.3026
G01 X13.8090 Y49.6328
G01 X13.4973 Y48.9716
G01 X13.1570 Y48.3316
G01 X12.7869 Y47.7096
G01 X12.3840 Y47.1012
G01 X11.9552 Y46.5167
G01 X11.4995 Y45.9544
G01 X11.0134 Y45.4103
G01 X10.5049 Y44.8935
G01 X9.9732 Y44.4026
G01 X9.4138 Y43.9340
G01 X8.8363 Y43.4957
G01 X8.2395 Y43.0864
G01 X7.6186 Y42.7031
G01 X6.9841 Y42.3524
G01 X6.3346 Y42.0331
G01 X5.6650 Y41.7430
G01 X4.9867 Y41.4873
G01 X4.2981 Y41.2647
G01 X3.5937 Y41.0739
G01 X2.8857 Y40.9183
G01 X2.1722 Y40.7971
G01 X1.4478 Y40.7096
G01 X0.7271 Y40.6575
G01 X0.1000 Y40.6423
G01 X0.1000 Y0.1000
G00 X0.1000 Y0.1000
G01 F250.00
G01 Z-1.7000
G01 F150.00
G01 X39.9000 Y0.1000
G01 X39.9000 Y79.9000
G01 X24.3014 Y79.9000
G01 X10.7398 Y66.3483
G01 X11.1727 Y65.8945
G01 X11.6481 Y65.3456
G01 X12.0950 Y64.7764
G01 X12.5149 Y64.1854
G01 X12.9090 Y63.5698
G01 X13.2689 Y62.9433
G01 X13.5994 Y62.2981
G01 X13.9009 Y61.6323
G01 X14.1678 Y60.9583
G01 X14.4016 Y60.2734
G01 X14.6039 Y59.5722
G01 X14.7706 Y58.8692
G01 X14.9038 Y58.1566
G01 X15.0034 Y57.4325
G01 X15.0674 Y56.7104
G01 X15.0966 Y55.9873
G01 X15.0910 Y55.2576
G01 X15.0505 Y54.5338
G01 X14.9755 Y53.8140
G01 X14.8650 Y53.0927
G01 X14.7209 Y52.3822
G01 X14.5431 Y51.6807
G01 X14.3301 Y50.9827
G01 X14.0862 Y50.3026
G01 X13.8090 Y49.6328
G01 X13.4973 Y48.9716
G01 X13.1570 Y48.3316
G01 X12.7869 Y47.7096
G01 X12.3840 Y47.1012
G01 X11.9552 Y46.5167
G01 X11.4995 Y45.9544
G01 X11.0134 Y45.4103
G01 X10.5049 Y44.8935
G01 X9.9732 Y44.4026
G01 X9.4138 Y43.9340
G01 X8.8363 Y43.4957
G01 X8.2395 Y43.0864
G01 X7.6186 Y42.7031
G01 X6.9841 Y42.3524
G01 X6.3346 Y42.0331
G01 X5.6650 Y41.7430
G01 X4.9867 Y41.4873
G01 X4.2981 Y41.2647
G01 X3.5937 Y41.0739
G01 X2.8857 Y40.9183
G01 X2.1722 Y40.7971
G01 X1.4478 Y40.7096
G01 X0.7271 Y40.6575
G01 X0.1000 Y40.6423
G01 X0.1000 Y0.1000
G00 Z5.0000
G00 X40.5400 Y-0.0012
G01 F250.00
G01 Z-0.4000
G01 F150.00
G01 X40.5406 Y-0.0107
G01 X40.5419 Y-0.0196
G01 X40.5439 Y-0.0279
G01 X40.5474 Y-0.0377
G01 X40.5512 Y-0.0461
G01 X40.5562 Y-0.0545
G01 X40.5619 Y-0.0625
G01 X40.5693 Y-0.0707
G01 X40.5775 Y-0.0781
G01 X40.5855 Y-0.0838
G01 X40.5939 Y-0.0888
G01 X40.6023 Y-0.0926
G01 X40.6121 Y-0.0961
G01 X40.6204 Y-0.0981
G01 X40.6290 Y-0.0994
G01 X40.6400 Y-0.1000
G01 X69.2150 Y-0.1000
G01 X69.2236 Y-0.0996
G01 X69.2309 Y-0.0987
G01 X69.2381 Y-0.0973
G01 X69.2452 Y-0.0953
G01 X69.2527 Y-0.0926
G01 X69.2587 Y-0.0899
G01 X69.2654 Y-0.0864
G01 X69.2716 Y-0.0825
G01 X69.2792 Y-0.0767
G01 X69.2849 Y-0.0716
G01 X69.2899 Y-0.0663
G01 X69.2946 Y-0.0606
G01 X69.2988 Y-0.0545
G01 X69.3026 Y-0.0482
G01 X69.3059 Y-0.0417
G01 X69.3088 Y-0.0348
G01 X69.3117 Y-0.0255
G01 X69.3133 Y-0.0183
G01 X69.3146 Y-0.0086
G01 X69.3150 Y-0.0000
G01 X69.3150 Y80.0100
G01 X69.3146 Y80.0186
G01 X69.3137 Y80.0259
G01 X69.3123 Y80.0331
G01 X69.3103 Y80.0402
G01 X69.3076 Y80.0477
G01 X69.3049 Y80.0538
G01 X69.3014 Y80.0604
G01 X69.2975 Y80.0666
G01 X69.2917 Y80.0742
G01 X69.2866 Y80.0799
G01 X69.2813 Y80.0849
G01 X69.2756 Y80.0896
G01 X69.2695 Y80.0938
G01 X69.2632 Y80.0976
G01 X69.2567 Y80.1009
G01 X69.2498 Y80.1038
G01 X69.2405 Y80.1067
G01 X69.2333 Y80.1083
G01 X69.2236 Y80.1096
G01 X69.2150 Y80.1100
G01 X40.6400 Y80.1100
G01 X40.6314 Y80.1096
G01 X40.6241 Y80.1087
G01 X40.6169 Y80.1073
G01 X40.6098 Y80.1053
G01 X40.6023 Y80.1026
G01 X40.5963 Y80.0999
G01 X40.5896 Y80.0964
G01 X40.5834 Y80.0925
G01 X40.5758 Y80.0867
G01 X40.5701 Y80.0816
G01 X40.5651 Y80.0763
G01 X40.5604 Y80.0706
G01 X40.5562 Y80.0645
G01 X40.5524 Y80.0582
G01 X40.5491 Y80.0517
G01 X40.5462 Y80.0448
G01 X40.5433 Y80.0355
G01 X40.5417 Y80.0283
G01 X40.5404 Y80.0186
G01 X40.5400 Y80.0100
G01 X40.5400 Y-0.0012
G00 X40.5400 Y-0.0012
G01 F250.00
G01 Z-0.8000
G01 F150.00
G01 X40.5406 Y-0.0107
G01 X40.5419 Y-0.0196
G01 X40.5439 Y-0.0279
G01 X40.5474 Y-0.0377
G01 X40.5512 Y-0.0461
G01 X40.5562 Y-0.0545
G01 X40.5619 Y-0.0625
G01 X40.5693 Y-0.0707
G01 X40.5775 Y-0.0781
G01 X40.5855 Y-0.0838
G01 X40.5939 Y-0.0888
G01 X40.6023 Y-0.0926
G01 X40.6121 Y-0.0961
G01 X40.6204 Y-0.0981
G01 X40.6290 Y-0.0994
G01 X40.6400 Y-0.1000
G01 X69.2150 Y-0.1000
G01 X69.2236 Y-0.0996
G01 X69.2309 Y-0.0987
G01 X69.2381 Y-0.0973
G01 X69.2452 Y-0.0953
G01 X69.2527 Y-0.0926
G01 X69.2587 Y-0.0899
G01 X69.2654 Y-0.0864
G01 X69.2716 Y-0.0825
G01 X69.2792 Y-0.0767
G01 X69.2849 Y-0.0716
G01 X69.2899 Y-0.0663
G01 X69.2946 Y-0.0606
G01 X69.2988 Y-0.0545
G01 X69.3026 Y-0.0482
G01 X69.3059 Y-0.0417
G01 X69.3088 Y-0.0348
G01 X69.3117 Y-0.0255
G01 X69.3133 Y-0.0183
G01 X69.3146 Y-0.0086
G01 X69.3150 Y-0.0000
G01 X69.3150 Y80.0100
G01 X69.3146 Y80.0186
G01 X69.3137 Y80.0259
G01 X69.3123 Y80.0331
G01 X69.3103 Y80.0402
G01 X69.3076 Y80.0477
G01 X69.3049 Y80.0538
G01 X69.3014 Y80.0604
G01 X69.2975 Y80.0666
G01 X69.2917 Y80.0742
G01 X69.2866 Y80.0799
G01 X69.2813 Y80.0849
G01 X69.2756 Y80.0896
G01 X69.2695 Y80.0938
G01 X69.2632 Y80.0976
G01 X69.2567 Y80.1009
G01 X69.2498 Y80.1038
G01 X69.2405 Y80.1067
G01 X69.2333 Y80.1083
G01 X69.2236 Y80.1096
G01 X69.2150 Y80.1100
G01 X40.6400 Y80.1100
G01 X40.6314 Y80.1096
G01 X40.6241 Y80.1087
G01 X40.6169 Y80.1073
G01 X40.6098 Y80.1053
G01 X40.6023 Y80.1026
G01 X40.5963 Y80.0999
G01 X40.5896 Y80.0964
G01 X40.5834 Y80.0925
G01 X40.5758 Y80.0867
G01 X40.5701 Y80.0816
G01 X40.5651 Y80.0763
G01 X40.5604 Y80.0706
G01 X40.5562 Y80.0645
G01 X40.5524 Y80.0582
G01 X40.5491 Y80.0517
G01 X40.5462 Y80.0448
G01 X40.5433 Y80.0355
G01 X40.5417 Y80.0283
G01 X40.5404 Y80.0186
G01 X40.5400 Y80.0100
G01 X40.5400 Y-0.0012
G00 X40.5400 Y-0.0012
G01 F250.00
G01 Z-1.2000
G01 F150.00
G01 X40.5406 Y-0.0107
G01 X40.5419 Y-0.0196
G01 X40.5439 Y-0.0279
G01 X40.5474 Y-0.0377
G01 X40.5512 Y-0.0461
G01 X40.5562 Y-0.0545
G01 X40.5619 Y-0.0625
G01 X40.5693 Y-0.0707
G01 X40.5775 Y-0.0781
G01 X40.5855 Y-0.0838
G01 X40.5939 Y-0.0888
G01 X40.6023 Y-0.0926
G01 X40.6121 Y-0.0961
G01 X40.6204 Y-0.0981
G01 X40.6290 Y-0.0994
G01 X40.6400 Y-0.1000
G01 X69.2150 Y-0.1000
G01 X69.2236 Y-0.0996
G01 X69.2309 Y-0.0987
G01 X69.2381 Y-0.0973
G01 X69.2452 Y-0.0953
G01 X69.2527 Y-0.0926
G01 X69.2587 Y-0.0899
G01 X69.2654 Y-0.0864
G01 X69.2716 Y-0.0825
G01 X69.2792 Y-0.0767
G01 X69.2849 Y-0.0716
G01 X69.2899 Y-0.0663
G01 X69.2946 Y-0.0606
G01 X69.2988 Y-0.0545
G01 X69.3026 Y-0.0482
G01 X69.3059 Y-0.0417
G01 X69.3088 Y-0.0348
G01 X69.3117 Y-0.0255
G01 X69.3133 Y-0.0183
G01 X69.3146 Y-0.0086
G01 X69.3150 Y-0.0000
G01 X69.3150 Y80.0100
G01 X69.3146 Y80.0186
G01 X69.3137 Y80.0259
G01 X69.3123 Y80.0331
G01 X69.3103 Y80.0402
G01 X69.3076 Y80.0477
G01 X69.3049 Y80.0538
G01 X69.3014 Y80.0604
G01 X69.2975 Y80.0666
G01 X69.2917 Y80.0742
G01 X69.2866 Y80.0799
G01 X69.2813 Y80.0849
G01 X69.2756 Y80.0896
G01 X69.2695 Y80.0938
G01 X69.2632 Y80.0976
G01 X69.2567 Y80.1009
G01 X69.2498 Y80.1038
G01 X69.2405 Y80.1067
G01 X69.2333 Y80.1083
G01 X69.2236 Y80.1096
G01 X69.2150 Y80.1100
G01 X40.6400 Y80.1100
G01 X40.6314 Y80.1096
G01 X40.6241 Y80.1087
G01 X40.6169 Y80.1073
G01 X40.6098 Y80.1053
G01 X40.6023 Y80.1026
G01 X40.5963 Y80.0999
G01 X40.5896 Y80.0964
G01 X40.5834 Y80.0925
G01 X40.5758 Y80.0867
G01 X40.5701 Y80.0816
G01 X40.5651 Y80.0763
G01 X40.5604 Y80.0706
G01 X40.5562 Y80.0645
G01 X40.5524 Y80.0582
G01 X40.5491 Y80.0517
G01 X40.5462 Y80.0448
G01 X40.5433 Y80.0355
G01 X40.5417 Y80.0283
G01 X40.5404 Y80.0186
G01 X40.5400 Y80.0100
G01 X40.5400 Y-0.0012
G00 X40.5400 Y-0.0012
G01 F250.00
G01 Z-1.6000
G01 F150.00
G01 X40.5406 Y-0.0107
G01 X40.5419 Y-0.0196
G01 X40.5439 Y-0.0279
G01 X40.5474 Y-0.0377
G01 X40.5512 Y-0.0461
G01 X40.5562 Y-0.0545
G01 X40.5619 Y-0.0625
G01 X40.5693 Y-0.0707
G01 X40.5775 Y-0.0781
G01 X40.5855 Y-0.0838
G01 X40.5939 Y-0.0888
G01 X40.6023 Y-0.0926
G01 X40.6121 Y-0.0961
G01 X40.6204 Y-0.0981
G01 X40.6290 Y-0.0994
G01 X40.6400 Y-0.1000
G01 X69.2150 Y-0.1000
G01 X69.2236 Y-0.0996
G01 X69.2309 Y-0.0987
G01 X69.2381 Y-0.0973
G01 X69.2452 Y-0.0953
G01 X69.2527 Y-0.0926
G01 X69.2587 Y-0.0899
G01 X69.2654 Y-0.0864
G01 X69.2716 Y-0.0825
G01 X69.2792 Y-0.0767
G01 X69.2849 Y-0.0716
G01 X69.2899 Y-0.0663
G01 X69.2946 Y-0.0606
G01 X69.2988 Y-0.0545
G01 X69.3026 Y-0.0482
G01 X69.3059 Y-0.0417
G01 X69.3088 Y-0.0348
G01 X69.3117 Y-0.0255
G01 X69.3133 Y-0.0183
G01 X69.3146 Y-0.0086
G01 X69.3150 Y-0.0000
G01 X69.3150 Y80.0100
G01 X69.3146 Y80.0186
G01 X69.3137 Y80.0259
G01 X69.3123 Y80.0331
G01 X69.3103 Y80.0402
G01 X69.3076 Y80.0477
G01 X69.3049 Y80.0538
G01 X69.3014 Y80.0604
G01 X69.2975 Y80.0666
G01 X69.2917 Y80.0742
G01 X69.2866 Y80.0799
G01 X69.2813 Y80.0849
G01 X69.2756 Y80.0896
G01 X69.2695 Y80.0938
G01 X69.2632 Y80.0976
G01 X69.2567 Y80.1009
G01 X69.2498 Y80.1038
G01 X69.2405 Y80.1067
G01 X69.2333 Y80.1083
G01 X69.2236 Y80.1096
G01 X69.2150 Y80.1100
G01 X40.6400 Y80.1100
G01 X40.6314 Y80.1096
G01 X40.6241 Y80.1087
G01 X40.6169 Y80.1073
G01 X40.6098 Y80.1053
G01 X40.6023 Y80.1026
G01 X40.5963 Y80.0999
G01 X40.5896 Y80.0964
G01 X40.5834 Y80.0925
G01 X40.5758 Y80.0867
G01 X40.5701 Y80.0816
G01 X40.5651 Y80.0763
G01 X40.5604 Y80.0706
G01 X40.5562 Y80.0645
G01 X40.5524 Y80.0582
G01 X40.5491 Y80.0517
G01 X40.5462 Y80.0448
G01 X40.5433 Y80.0355
G01 X40.5417 Y80.0283
G01 X40.5404 Y80.0186
G01 X40.5400 Y80.0100
G01 X40.5400 Y-0.0012
G00 X40.5400 Y-0.0012
G01 F250.00
G01 Z-1.7000
G01 F150.00
G01 X40.5406 Y-0.0107
G01 X40.5419 Y-0.0196
G01 X40.5439 Y-0.0279
G01 X40.5474 Y-0.0377
G01 X40.5512 Y-0.0461
G01 X40.5562 Y-0.0545
G01 X40.5619 Y-0.0625
G01 X40.5693 Y-0.0707
G01 X40.5775 Y-0.0781
G01 X40.5855 Y-0.0838
G01 X40.5939 Y-0.0888
G01 X40.6023 Y-0.0926
G01 X40.6121 Y-0.0961
G01 X40.6204 Y-0.0981
G01 X40.6290 Y-0.0994
G01 X40.6400 Y-0.1000
G01 X69.2150 Y-0.1000
G01 X69.2236 Y-0.0996
G01 X69.2309 Y-0.0987
G01 X69.2381 Y-0.0973
G01 X69.2452 Y-0.0953
G01 X69.2527 Y-0.0926
G01 X69.2587 Y-0.0899
G01 X69.2654 Y-0.0864
G01 X69.2716 Y-0.0825
G01 X69.2792 Y-0.0767
G01 X69.2849 Y-0.0716
G01 X69.2899 Y-0.0663
G01 X69.2946 Y-0.0606
G01 X69.2988 Y-0.0545
G01 X69.3026 Y-0.0482
G01 X69.3059 Y-0.0417
G01 X69.3088 Y-0.0348
G01 X69.3117 Y-0.0255
G01 X69.3133 Y-0.0183
G01 X69.3146 Y-0.0086
G01 X69.3150 Y-0.0000
G01 X69.3150 Y80.0100
G01 X69.3146 Y80.0186
G01 X69.3137 Y80.0259
G01 X69.3123 Y80.0331
G01 X69.3103 Y80.0402
G01 X69.3076 Y80.0477
G01 X69.3049 Y80.0538
G01 X69.3014 Y80.0604
G01 X69.2975 Y80.0666
G01 X69.2917 Y80.0742
G01 X69.2866 Y80.0799
G01 X69.2813 Y80.0849
G01 X69.2756 Y80.0896
G01 X69.2695 Y80.0938
G01 X69.2632 Y80.0976
G01 X69.2567 Y80.1009
G01 X69.2498 Y80.1038
G01 X69.2405 Y80.1067
G01 X69.2333 Y80.1083
G01 X69.2236 Y80.1096
G01 X69.2150 Y80.1100
G01 X40.6400 Y80.1100
G01 X40.6314 Y80.1096
G01 X40.6241 Y80.1087
G01 X40.6169 Y80.1073
G01 X40.6098 Y80.1053
G01 X40.6023 Y80.1026
G01 X40.5963 Y80.0999
G01 X40.5896 Y80.0964
G01 X40.5834 Y80.0925
G01 X40.5758 Y80.0867
G01 X40.5701 Y80.0816
G01 X40.5651 Y80.0763
G01 X40.5604 Y80.0706
G01 X40.5562 Y80.0645
G01 X40.5524 Y80.0582
G01 X40.5491 Y80.0517
G01 X40.5462 Y80.0448
G01 X40.5433 Y80.0355
G01 X40.5417 Y80.0283
G01 X40.5404 Y80.0186
G01 X40.5400 Y80.0100
G01 X40.5400 Y-0.0012
G00 Z5.0000
G00 X40.7400 Y0.1000
G01 F250.00
G01 Z-0.4000
G01 F150.00
G01 X69.1150 Y0.1000
G01 X69.1150 Y79.9100
G01 X40.7400 Y79.9100
G01 X40.7400 Y0.1000
G00 X40.7400 Y0.1000
G01 F250.00
G01 Z-0.8000
G01 F150.00
G01 X69.1150 Y0.1000
G01 X69.1150 Y79.9100
G01 X40.7400 Y79.9100
G01 X40.7400 Y0.1000
G00 X40.7400 Y0.1000
G01 F250.00
G01 Z-1.2000
G01 F150.00
G01 X69.1150 Y0.1000
G01 X69.1150 Y79.9100
G01 X40.7400 Y79.9100
G01 X40.7400 Y0.1000
G00 X40.7400 Y0.1000
G01 F250.00
G01 Z-1.6000
G01 F150.00
G01 X69.1150 Y0.1000
G01 X69.1150 Y79.9100
G01 X40.7400 Y79.9100
G01 X40.7400 Y0.1000
G00 X40.7400 Y0.1000
G01 F250.00
G01 Z-1.7000
G01 F150.00
G01 X69.1150 Y0.1000
G01 X69.1150 Y79.9100
G01 X40.7400 Y79.9100
G01 X40.7400 Y0.1000
G00 Z5.0000
G00 X9.4002 Y44.5061
G01 F250.00
G01 Z-0.4000
G01 F150.00
G01 X9.4000 Y44.4963
G01 X9.4008 Y44.4871
G01 X9.4027 Y44.4769
G01 X9.4054 Y44.4675
G01 X9.4091 Y44.4583
G01 X9.4136 Y44.4496
G01 X9.4189 Y44.4414
G01 X9.4251 Y44.4337
G01 X9.4319 Y44.4268
G01 X9.4394 Y44.4204
G01 X9.4475 Y44.4149
G01 X9.4551 Y44.4106
G01 X9.4652 Y44.4062
G01 X9.4739 Y44.4034
G01 X9.4841 Y44.4013
G01 X9.4933 Y44.4002
G01 X9.5037 Y44.4000
G01 X9.5129 Y44.4008
G01 X9.5231 Y44.4027
G01 X9.5325 Y44.4054
G01 X9.5417 Y44.4091
G01 X9.5504 Y44.4136
G01 X9.5586 Y44.4189
G01 X9.5663 Y44.4251
G01 X9.5732 Y44.4319
G01 X9.5796 Y44.4394
G01 X9.5851 Y44.4475
G01 X9.5894 Y44.4551
G01 X9.5938 Y44.4652
G01 X9.5966 Y44.4739
G01 X9.5987 Y44.4841
G01 X9.5998 Y44.4933
G01 X9.6000 Y44.5037
G01 X9.5992 Y44.5129
G01 X9.5973 Y44.5231
G01 X9.5946 Y44.5325
G01 X9.5909 Y44.5417
G01 X9.5864 Y44.5504
G01 X9.5811 Y44.5586
G01 X9.5749 Y44.5663
G01 X9.5681 Y44.5732
G01 X9.5606 Y44.5796
G01 X9.5525 Y44.5851
G01 X9.5449 Y44.5894
G01 X9.5348 Y44.5938
G01 X9.5261 Y44.5966
G01 X9.5159 Y44.5987
G01 X9.5067 Y44.5998
G01 X9.4963 Y44.6000
G01 X9.4871 Y44.5992
G01 X9.4769 Y44.5973
G01 X9.4675 Y44.5946
G01 X9.4583 Y44.5909
G01 X9.4496 Y44.5864
G01 X9.4414 Y44.5811
G01 X9.4337 Y44.5749
G01 X9.4268 Y44.5681
G01 X9.4204 Y44.5606
G01 X9.4149 Y44.5525
G01 X9.4106 Y44.5449
G01 X9.4062 Y44.5348
G01 X9.4034 Y44.5261
G01 X9.4013 Y44.5159
G01 X9.4002 Y44.5061
G00 X9.4002 Y44.5061
G01 F250.00
G01 Z-0.8000
G01 F150.00
G01 X9.4000 Y44.4963
G01 X9.4008 Y44.4871
G01 X9.4027 Y44.4769
G01 X9.4054 Y44.4675
G01 X9.4091 Y44.4583
G01 X9.4136 Y44.4496
G01 X9.4189 Y44.4414
G01 X9.4251 Y44.4337
G01 X9.4319 Y44.4268
G01 X9.4394 Y44.4204
G01 X9.4475 Y44.4149
G01 X9.4551 Y44.4106
G01 X9.4652 Y44.4062
G01 X9.4739 Y44.4034
G01 X9.4841 Y44.4013
G01 X9.4933 Y44.4002
G01 X9.5037 Y44.4000
G01 X9.5129 Y44.4008
G01 X9.5231 Y44.4027
G01 X9.5325 Y44.4054
G01 X9.5417 Y44.4091
G01 X9.5504 Y44.4136
G01 X9.5586 Y44.4189
G01 X9.5663 Y44.4251
G01 X9.5732 Y44.4319
G01 X9.5796 Y44.4394
G01 X9.5851 Y44.4475
G01 X9.5894 Y44.4551
G01 X9.5938 Y44.4652
G01 X9.5966 Y44.4739
G01 X9.5987 Y44.4841
G01 X9.5998 Y44.4933
G01 X9.6000 Y44.5037
G01 X9.5992 Y44.5129
G01 X9.5973 Y44.5231
G01 X9.5946 Y44.5325
G01 X9.5909 Y44.5417
G01 X9.5864 Y44.5504
G01 X9.5811 Y44.5586
G01 X9.5749 Y44.5663
G01 X9.5681 Y44.5732
G01 X9.5606 Y44.5796
G01 X9.5525 Y44.5851
G01 X9.5449 Y44.5894
G01 X9.5348 Y44.5938
G01 X9.5261 Y44.5966
G01 X9.5159 Y44.5987
G01 X9.5067 Y44.5998
G01 X9.4963 Y44.6000
G01 X9.4871 Y44.5992
G01 X9.4769 Y44.5973
G01 X9.4675 Y44.5946
G01 X9.4583 Y44.5909
G01 X9.4496 Y44.5864
G01 X9.4414 Y44.5811
G01 X9.4337 Y44.5749
G01 X9.4268 Y44.5681
G01 X9.4204 Y44.5606
G01 X9.4149 Y44.5525
G01 X9.4106 Y44.5449
G01 X9.4062 Y44.5348
G01 X9.4034 Y44.5261
G01 X9.4013 Y44.5159
G01 X9.4002 Y44.5061
G00 X9.4002 Y44.5061
G01 F250.00
G01 Z-1.2000
G01 F150.00
G01 X9.4000 Y44.4963
G01 X9.4008 Y44.4871
G01 X9.4027 Y44.4769
G01 X9.4054 Y44.4675
G01 X9.4091 Y44.4583
G01 X9.4136 Y44.4496
G01 X9.4189 Y44.4414
G01 X9.4251 Y44.4337
G01 X9.4319 Y44.4268
G01 X9.4394 Y44.4204
G01 X9.4475 Y44.4149
G01 X9.4551 Y44.4106
G01 X9.4652 Y44.4062
G01 X9.4739 Y44.4034
G01 X9.4841 Y44.4013
G01 X9.4933 Y44.4002
G01 X9.5037 Y44.4000
G01 X9.5129 Y44.4008
G01 X9.5231 Y44.4027
G01 X9.5325 Y44.4054
G01 X9.5417 Y44.4091
G01 X9.5504 Y44.4136
G01 X9.5586 Y44.4189
G01 X9.5663 Y44.4251
G01 X9.5732 Y44.4319
G01 X9.5796 Y44.4394
G01 X9.5851 Y44.4475
G01 X9.5894 Y44.4551
G01 X9.5938 Y44.4652
G01 X9.5966 Y44.4739
G01 X9.5987 Y44.4841
G01 X9.5998 Y44.4933
G01 X9.6000 Y44.5037
G01 X9.5992 Y44.5129
G01 X9.5973 Y44.5231
G01 X9.5946 Y44.5325
G01 X9.5909 Y44.5417
G01 X9.5864 Y44.5504
G01 X9.5811 Y44.5586
G01 X9.5749 Y44.5663
G01 X9.5681 Y44.5732
G01 X9.5606 Y44.5796
G01 X9.5525 Y44.5851
G01 X9.5449 Y44.5894
G01 X9.5348 Y44.5938
G01 X9.5261 Y44.5966
G01 X9.5159 Y44.5987
G01 X9.5067 Y44.5998
G01 X9.4963 Y44.6000
G01 X9.4871 Y44.5992
G01 X9.4769 Y44.5973
G01 X9.4675 Y44.5946
G01 X9.4583 Y44.5909
G01 X9.4496 Y44.5864
G01 X9.4414 Y44.5811
G01 X9.4337 Y44.5749
G01 X9.4268 Y44.5681
G01 X9.4204 Y44.5606
G01 X9.4149 Y44.5525
G01 X9.4106 Y44.5449
G01 X9.4062 Y44.5348
G01 X9.4034 Y44.5261
G01 X9.4013 Y44.5159
G01 X9.4002 Y44.5061
G00 X9.4002 Y44.5061
G01 F250.00
G01 Z-1.6000
G01 F150.00
G01 X9.4000 Y44.4963
G01 X9.4008 Y44.4871
G01 X9.4027 Y44.4769
G01 X9.4054 Y44.4675
G01 X9.4091 Y44.4583
G01 X9.4136 Y44.4496
G01 X9.4189 Y44.4414
G01 X9.4251 Y44.4337
G01 X9.4319 Y44.4268
G01 X9.4394 Y44.4204
G01 X9.4475 Y44.4149
G01 X9.4551 Y44.4106
G01 X9.4652 Y44.4062
G01 X9.4739 Y44.4034
G01 X9.4841 Y44.4013
G01 X9.4933 Y44.4002
G01 X9.5037 Y44.4000
G01 X9.5129 Y44.4008
G01 X9.5231 Y44.4027
G01 X9.5325 Y44.4054
G01 X9.5417 Y44.4091
G01 X9.5504 Y44.4136
G01 X9.5586 Y44.4189
G01 X9.5663 Y44.4251
G01 X9.5732 Y44.4319
G01 X9.5796 Y44.4394
G01 X9.5851 Y44.4475
G01 X9.5894 Y44.4551
G01 X9.5938 Y44.4652
G01 X9.5966 Y44.4739
G01 X9.5987 Y44.4841
G01 X9.5998 Y44.4933
G01 X9.6000 Y44.5037
G01 X9.5992 Y44.5129
G01 X9.5973 Y44.5231
G01 X9.5946 Y44.5325
G01 X9.5909 Y44.5417
G01 X9.5864 Y44.5504
G01 X9.5811 Y44.5586
G01 X9.5749 Y44.5663
G01 X9.5681 Y44.5732
G01 X9.5606 Y44.5796
G01 X9.5525 Y44.5851
G01 X9.5449 Y44.5894
G01 X9.5348 Y44.5938
G01 X9.5261 Y44.5966
G01 X9.5159 Y44.5987
G01 X9.5067 Y44.5998
G01 X9.4963 Y44.6000
G01 X9.4871 Y44.5992
G01 X9.4769 Y44.5973
G01 X9.4675 Y44.5946
G01 X9.4583 Y44.5909
G01 X9.4496 Y44.5864
G01 X9.4414 Y44.5811
G01 X9.4337 Y44.5749
G01 X9.4268 Y44.5681
G01 X9.4204 Y44.5606
G01 X9.4149 Y44.5525
G01 X9.4106 Y44.5449
G01 X9.4062 Y44.5348
G01 X9.4034 Y44.5261
G01 X9.4013 Y44.5159
G01 X9.4002 Y44.5061
G00 X9.4002 Y44.5061
G01 F250.00
G01 Z-1.7000
G01 F150.00
G01 X9.4000 Y44.4963
G01 X9.4008 Y44.4871
G01 X9.4027 Y44.4769
G01 X9.4054 Y44.4675
G01 X9.4091 Y44.4583
G01 X9.4136 Y44.4496
G01 X9.4189 Y44.4414
G01 X9.4251 Y44.4337
G01 X9.4319 Y44.4268
G01 X9.4394 Y44.4204
G01 X9.4475 Y44.4149
G01 X9.4551 Y44.4106
G01 X9.4652 Y44.4062
G01 X9.4739 Y44.4034
G01 X9.4841 Y44.4013
G01 X9.4933 Y44.4002
G01 X9.5037 Y44.4000
G01 X9.5129 Y44.4008
G01 X9.5231 Y44.4027
G01 X9.5325 Y44.4054
G01 X9.5417 Y44.4091
G01 X9.5504 Y44.4136
G01 X9.5586 Y44.4189
G01 X9.5663 Y44.4251
G01 X9.5732 Y44.4319
G01 X9.5796 Y44.4394
G01 X9.5851 Y44.4475
G01 X9.5894 Y44.4551
G01 X9.5938 Y44.4652
G01 X9.5966 Y44.4739
G01 X9.5987 Y44.4841
G01 X9.5998 Y44.4933
G01 X9.6000 Y44.5037
G01 X9.5992 Y44.5129
G01 X9.5973 Y44.5231
G01 X9.5946 Y44.5325
G01 X9.5909 Y44.5417
G01 X9.5864 Y44.5504
G01 X9.5811 Y44.5586
G01 X9.5749 Y44.5663
G01 X9.5681 Y44.5732
G01 X9.5606 Y44.5796
G01 X9.5525 Y44.5851
G01 X9.5449 Y44.5894
G01 X9.5348 Y44.5938
G01 X9.5261 Y44.5966
G01 X9.5159 Y44.5987
G01 X9.5067 Y44.5998
G01 X9.4963 Y44.6000
G01 X9.4871 Y44.5992
G01 X9.4769 Y44.5973
G01 X9.4675 Y44.5946
G01 X9.4583 Y44.5909
G01 X9.4496 Y44.5864
G01 X9.4414 Y44.5811
G01 X9.4337 Y44.5749
G01 X9.4268 Y44.5681
G01 X9.4204 Y44.5606
G01 X9.4149 Y44.5525
G01 X9.4106 Y44.5449
G01 X9.4062 Y44.5348
G01 X9.4034 Y44.5261
G01 X9.4013 Y44.5159
G01 X9.4002 Y44.5061
G00 Z5.0000
M05
G00 Z5.0000
G00 Z100.00
G00 X0.0 Y0.0

M02