(G-CODE GENERATED BY FLATCAM v8.98 - www.flatcam.org - Version Date: 2019/10/16)

(Name: TurnsCounter.drl_mill_cnc_40_mill)
(Type: G-code from Geometry)
(Units: MM)

(Created on Monday, 22 August 2022 at 18:53)

(TOOL DIAMETER: 1.0 mm)
(Feedrate: 150.0 mm/min)
(Feedrate_Z: 250.0 mm/min)
(Feedrate rapids 80.0 mm/min)

(Z_Cut: -1.7 mm)
(DepthPerCut: 0.4 mm <=>5 passes)
(Z_Move: 5.0 mm)
(Z Toolchange: 100.0 mm)
(X,Y Toolchange: 0.0000, 0.0000 mm)
(Z Start: None mm)
(Z End: 100.0 mm)
(Steps per circle: 128)
(Postprocessor Geometry: default)

(X range:    8.5000 ...   31.5000  mm)
(Y range:   18.5000 ...   71.5000  mm)

(Spindle Speed: 15000 RPM)

G21
G90
G94

G01 F150.00
G00 Z5.0000

M03 S15000
G00 X11.5000 Y20.0000
G01 F250.00
G01 Z-0.4000
G01 F150.00
G01 X11.4928 Y19.8530
G01 X11.4712 Y19.7074
G01 X11.4354 Y19.5646
G01 X11.3858 Y19.4260
G01 X11.3229 Y19.2929
G01 X11.2472 Y19.1666
G01 X11.1595 Y19.0484
G01 X11.0607 Y18.9393
G01 X10.9516 Y18.8405
G01 X10.8334 Y18.7528
G01 X10.7071 Y18.6771
G01 X10.5740 Y18.6142
G01 X10.4354 Y18.5646
G01 X10.2926 Y18.5288
G01 X10.1470 Y18.5072
G01 X10.0000 Y18.5000
G01 X9.8530 Y18.5072
G01 X9.7074 Y18.5288
G01 X9.5646 Y18.5646
G01 X9.4260 Y18.6142
G01 X9.2929 Y18.6771
G01 X9.1666 Y18.7528
G01 X9.0484 Y18.8405
G01 X8.9393 Y18.9393
G01 X8.8405 Y19.0484
G01 X8.7528 Y19.1666
G01 X8.6771 Y19.2929
G01 X8.6142 Y19.4260
G01 X8.5646 Y19.5646
G01 X8.5288 Y19.7074
G01 X8.5072 Y19.8530
G01 X8.5000 Y20.0000
G01 X8.5072 Y20.1470
G01 X8.5288 Y20.2926
G01 X8.5646 Y20.4354
G01 X8.6142 Y20.5740
G01 X8.6771 Y20.7071
G01 X8.7528 Y20.8334
G01 X8.8405 Y20.9516
G01 X8.9393 Y21.0607
G01 X9.0484 Y21.1595
G01 X9.1666 Y21.2472
G01 X9.2929 Y21.3229
G01 X9.4260 Y21.3858
G01 X9.5646 Y21.4354
G01 X9.7074 Y21.4712
G01 X9.8530 Y21.4928
G01 X10.0000 Y21.5000
G01 X10.1470 Y21.4928
G01 X10.2926 Y21.4712
G01 X10.4354 Y21.4354
G01 X10.5740 Y21.3858
G01 X10.7071 Y21.3229
G01 X10.8334 Y21.2472
G01 X10.9516 Y21.1595
G01 X11.0607 Y21.0607
G01 X11.1595 Y20.9516
G01 X11.2472 Y20.8334
G01 X11.3229 Y20.7071
G01 X11.3858 Y20.5740
G01 X11.4354 Y20.4354
G01 X11.4712 Y20.2926
G01 X11.4928 Y20.1470
G01 X11.5000 Y20.0000
G00 X11.5000 Y20.0000
G01 F250.00
G01 Z-0.8000
G01 F150.00
G01 X11.4928 Y19.8530
G01 X11.4712 Y19.7074
G01 X11.4354 Y19.5646
G01 X11.3858 Y19.4260
G01 X11.3229 Y19.2929
G01 X11.2472 Y19.1666
G01 X11.1595 Y19.0484
G01 X11.0607 Y18.9393
G01 X10.9516 Y18.8405
G01 X10.8334 Y18.7528
G01 X10.7071 Y18.6771
G01 X10.5740 Y18.6142
G01 X10.4354 Y18.5646
G01 X10.2926 Y18.5288
G01 X10.1470 Y18.5072
G01 X10.0000 Y18.5000
G01 X9.8530 Y18.5072
G01 X9.7074 Y18.5288
G01 X9.5646 Y18.5646
G01 X9.4260 Y18.6142
G01 X9.2929 Y18.6771
G01 X9.1666 Y18.7528
G01 X9.0484 Y18.8405
G01 X8.9393 Y18.9393
G01 X8.8405 Y19.0484
G01 X8.7528 Y19.1666
G01 X8.6771 Y19.2929
G01 X8.6142 Y19.4260
G01 X8.5646 Y19.5646
G01 X8.5288 Y19.7074
G01 X8.5072 Y19.8530
G01 X8.5000 Y20.0000
G01 X8.5072 Y20.1470
G01 X8.5288 Y20.2926
G01 X8.5646 Y20.4354
G01 X8.6142 Y20.5740
G01 X8.6771 Y20.7071
G01 X8.7528 Y20.8334
G01 X8.8405 Y20.9516
G01 X8.9393 Y21.0607
G01 X9.0484 Y21.1595
G01 X9.1666 Y21.2472
G01 X9.2929 Y21.3229
G01 X9.4260 Y21.3858
G01 X9.5646 Y21.4354
G01 X9.7074 Y21.4712
G01 X9.8530 Y21.4928
G01 X10.0000 Y21.5000
G01 X10.1470 Y21.4928
G01 X10.2926 Y21.4712
G01 X10.4354 Y21.4354
G01 X10.5740 Y21.3858
G01 X10.7071 Y21.3229
G01 X10.8334 Y21.2472
G01 X10.9516 Y21.1595
G01 X11.0607 Y21.0607
G01 X11.1595 Y20.9516
G01 X11.2472 Y20.8334
G01 X11.3229 Y20.7071
G01 X11.3858 Y20.5740
G01 X11.4354 Y20.4354
G01 X11.4712 Y20.2926
G01 X11.4928 Y20.1470
G01 X11.5000 Y20.0000
G00 X11.5000 Y20.0000
G01 F250.00
G01 Z-1.2000
G01 F150.00
G01 X11.4928 Y19.8530
G01 X11.4712 Y19.7074
G01 X11.4354 Y19.5646
G01 X11.3858 Y19.4260
G01 X11.3229 Y19.2929
G01 X11.2472 Y19.1666
G01 X11.1595 Y19.0484
G01 X11.0607 Y18.9393
G01 X10.9516 Y18.8405
G01 X10.8334 Y18.7528
G01 X10.7071 Y18.6771
G01 X10.5740 Y18.6142
G01 X10.4354 Y18.5646
G01 X10.2926 Y18.5288
G01 X10.1470 Y18.5072
G01 X10.0000 Y18.5000
G01 X9.8530 Y18.5072
G01 X9.7074 Y18.5288
G01 X9.5646 Y18.5646
G01 X9.4260 Y18.6142
G01 X9.2929 Y18.6771
G01 X9.1666 Y18.7528
G01 X9.0484 Y18.8405
G01 X8.9393 Y18.9393
G01 X8.8405 Y19.0484
G01 X8.7528 Y19.1666
G01 X8.6771 Y19.2929
G01 X8.6142 Y19.4260
G01 X8.5646 Y19.5646
G01 X8.5288 Y19.7074
G01 X8.5072 Y19.8530
G01 X8.5000 Y20.0000
G01 X8.5072 Y20.1470
G01 X8.5288 Y20.2926
G01 X8.5646 Y20.4354
G01 X8.6142 Y20.5740
G01 X8.6771 Y20.7071
G01 X8.7528 Y20.8334
G01 X8.8405 Y20.9516
G01 X8.9393 Y21.0607
G01 X9.0484 Y21.1595
G01 X9.1666 Y21.2472
G01 X9.2929 Y21.3229
G01 X9.4260 Y21.3858
G01 X9.5646 Y21.4354
G01 X9.7074 Y21.4712
G01 X9.8530 Y21.4928
G01 X10.0000 Y21.5000
G01 X10.1470 Y21.4928
G01 X10.2926 Y21.4712
G01 X10.4354 Y21.4354
G01 X10.5740 Y21.3858
G01 X10.7071 Y21.3229
G01 X10.8334 Y21.2472
G01 X10.9516 Y21.1595
G01 X11.0607 Y21.0607
G01 X11.1595 Y20.9516
G01 X11.2472 Y20.8334
G01 X11.3229 Y20.7071
G01 X11.3858 Y20.5740
G01 X11.4354 Y20.4354
G01 X11.4712 Y20.2926
G01 X11.4928 Y20.1470
G01 X11.5000 Y20.0000
G00 X11.5000 Y20.0000
G01 F250.00
G01 Z-1.6000
G01 F150.00
G01 X11.4928 Y19.8530
G01 X11.4712 Y19.7074
G01 X11.4354 Y19.5646
G01 X11.3858 Y19.4260
G01 X11.3229 Y19.2929
G01 X11.2472 Y19.1666
G01 X11.1595 Y19.0484
G01 X11.0607 Y18.9393
G01 X10.9516 Y18.8405
G01 X10.8334 Y18.7528
G01 X10.7071 Y18.6771
G01 X10.5740 Y18.6142
G01 X10.4354 Y18.5646
G01 X10.2926 Y18.5288
G01 X10.1470 Y18.5072
G01 X10.0000 Y18.5000
G01 X9.8530 Y18.5072
G01 X9.7074 Y18.5288
G01 X9.5646 Y18.5646
G01 X9.4260 Y18.6142
G01 X9.2929 Y18.6771
G01 X9.1666 Y18.7528
G01 X9.0484 Y18.8405
G01 X8.9393 Y18.9393
G01 X8.8405 Y19.0484
G01 X8.7528 Y19.1666
G01 X8.6771 Y19.2929
G01 X8.6142 Y19.4260
G01 X8.5646 Y19.5646
G01 X8.5288 Y19.7074
G01 X8.5072 Y19.8530
G01 X8.5000 Y20.0000
G01 X8.5072 Y20.1470
G01 X8.5288 Y20.2926
G01 X8.5646 Y20.4354
G01 X8.6142 Y20.5740
G01 X8.6771 Y20.7071
G01 X8.7528 Y20.8334
G01 X8.8405 Y20.9516
G01 X8.9393 Y21.0607
G01 X9.0484 Y21.1595
G01 X9.1666 Y21.2472
G01 X9.2929 Y21.3229
G01 X9.4260 Y21.3858
G01 X9.5646 Y21.4354
G01 X9.7074 Y21.4712
G01 X9.8530 Y21.4928
G01 X10.0000 Y21.5000
G01 X10.1470 Y21.4928
G01 X10.2926 Y21.4712
G01 X10.4354 Y21.4354
G01 X10.5740 Y21.3858
G01 X10.7071 Y21.3229
G01 X10.8334 Y21.2472
G01 X10.9516 Y21.1595
G01 X11.0607 Y21.0607
G01 X11.1595 Y20.9516
G01 X11.2472 Y20.8334
G01 X11.3229 Y20.7071
G01 X11.3858 Y20.5740
G01 X11.4354 Y20.4354
G01 X11.4712 Y20.2926
G01 X11.4928 Y20.1470
G01 X11.5000 Y20.0000
G00 X11.5000 Y20.0000
G01 F250.00
G01 Z-1.7000
G01 F150.00
G01 X11.4928 Y19.8530
G01 X11.4712 Y19.7074
G01 X11.4354 Y19.5646
G01 X11.3858 Y19.4260
G01 X11.3229 Y19.2929
G01 X11.2472 Y19.1666
G01 X11.1595 Y19.0484
G01 X11.0607 Y18.9393
G01 X10.9516 Y18.8405
G01 X10.8334 Y18.7528
G01 X10.7071 Y18.6771
G01 X10.5740 Y18.6142
G01 X10.4354 Y18.5646
G01 X10.2926 Y18.5288
G01 X10.1470 Y18.5072
G01 X10.0000 Y18.5000
G01 X9.8530 Y18.5072
G01 X9.7074 Y18.5288
G01 X9.5646 Y18.5646
G01 X9.4260 Y18.6142
G01 X9.2929 Y18.6771
G01 X9.1666 Y18.7528
G01 X9.0484 Y18.8405
G01 X8.9393 Y18.9393
G01 X8.8405 Y19.0484
G01 X8.7528 Y19.1666
G01 X8.6771 Y19.2929
G01 X8.6142 Y19.4260
G01 X8.5646 Y19.5646
G01 X8.5288 Y19.7074
G01 X8.5072 Y19.8530
G01 X8.5000 Y20.0000
G01 X8.5072 Y20.1470
G01 X8.5288 Y20.2926
G01 X8.5646 Y20.4354
G01 X8.6142 Y20.5740
G01 X8.6771 Y20.7071
G01 X8.7528 Y20.8334
G01 X8.8405 Y20.9516
G01 X8.9393 Y21.0607
G01 X9.0484 Y21.1595
G01 X9.1666 Y21.2472
G01 X9.2929 Y21.3229
G01 X9.4260 Y21.3858
G01 X9.5646 Y21.4354
G01 X9.7074 Y21.4712
G01 X9.8530 Y21.4928
G01 X10.0000 Y21.5000
G01 X10.1470 Y21.4928
G01 X10.2926 Y21.4712
G01 X10.4354 Y21.4354
G01 X10.5740 Y21.3858
G01 X10.7071 Y21.3229
G01 X10.8334 Y21.2472
G01 X10.9516 Y21.1595
G01 X11.0607 Y21.0607
G01 X11.1595 Y20.9516
G01 X11.2472 Y20.8334
G01 X11.3229 Y20.7071
G01 X11.3858 Y20.5740
G01 X11.4354 Y20.4354
G01 X11.4712 Y20.2926
G01 X11.4928 Y20.1470
G01 X11.5000 Y20.0000
G00 Z5.0000
G00 X31.5000 Y70.0000
G01 F250.00
G01 Z-0.4000
G01 F150.00
G01 X31.4928 Y69.8530
G01 X31.4712 Y69.7074
G01 X31.4354 Y69.5646
G01 X31.3858 Y69.4260
G01 X31.3229 Y69.2929
G01 X31.2472 Y69.1666
G01 X31.1595 Y69.0484
G01 X31.0607 Y68.9393
G01 X30.9516 Y68.8405
G01 X30.8334 Y68.7528
G01 X30.7071 Y68.6771
G01 X30.5740 Y68.6142
G01 X30.4354 Y68.5646
G01 X30.2926 Y68.5288
G01 X30.1470 Y68.5072
G01 X30.0000 Y68.5000
G01 X29.8530 Y68.5072
G01 X29.7074 Y68.5288
G01 X29.5646 Y68.5646
G01 X29.4260 Y68.6142
G01 X29.2929 Y68.6771
G01 X29.1666 Y68.7528
G01 X29.0484 Y68.8405
G01 X28.9393 Y68.9393
G01 X28.8405 Y69.0484
G01 X28.7528 Y69.1666
G01 X28.6771 Y69.2929
G01 X28.6142 Y69.4260
G01 X28.5646 Y69.5646
G01 X28.5288 Y69.7074
G01 X28.5072 Y69.8530
G01 X28.5000 Y70.0000
G01 X28.5072 Y70.1470
G01 X28.5288 Y70.2926
G01 X28.5646 Y70.4354
G01 X28.6142 Y70.5740
G01 X28.6771 Y70.7071
G01 X28.7528 Y70.8334
G01 X28.8405 Y70.9516
G01 X28.9393 Y71.0607
G01 X29.0484 Y71.1595
G01 X29.1666 Y71.2472
G01 X29.2929 Y71.3229
G01 X29.4260 Y71.3858
G01 X29.5646 Y71.4354
G01 X29.7074 Y71.4712
G01 X29.8530 Y71.4928
G01 X30.0000 Y71.5000
G01 X30.1470 Y71.4928
G01 X30.2926 Y71.4712
G01 X30.4354 Y71.4354
G01 X30.5740 Y71.3858
G01 X30.7071 Y71.3229
G01 X30.8334 Y71.2472
G01 X30.9516 Y71.1595
G01 X31.0607 Y71.0607
G01 X31.1595 Y70.9516
G01 X31.2472 Y70.8334
G01 X31.3229 Y70.7071
G01 X31.3858 Y70.5740
G01 X31.4354 Y70.4354
G01 X31.4712 Y70.2926
G01 X31.4928 Y70.1470
G01 X31.5000 Y70.0000
G00 X31.5000 Y70.0000
G01 F250.00
G01 Z-0.8000
G01 F150.00
G01 X31.4928 Y69.8530
G01 X31.4712 Y69.7074
G01 X31.4354 Y69.5646
G01 X31.3858 Y69.4260
G01 X31.3229 Y69.2929
G01 X31.2472 Y69.1666
G01 X31.1595 Y69.0484
G01 X31.0607 Y68.9393
G01 X30.9516 Y68.8405
G01 X30.8334 Y68.7528
G01 X30.7071 Y68.6771
G01 X30.5740 Y68.6142
G01 X30.4354 Y68.5646
G01 X30.2926 Y68.5288
G01 X30.1470 Y68.5072
G01 X30.0000 Y68.5000
G01 X29.8530 Y68.5072
G01 X29.7074 Y68.5288
G01 X29.5646 Y68.5646
G01 X29.4260 Y68.6142
G01 X29.2929 Y68.6771
G01 X29.1666 Y68.7528
G01 X29.0484 Y68.8405
G01 X28.9393 Y68.9393
G01 X28.8405 Y69.0484
G01 X28.7528 Y69.1666
G01 X28.6771 Y69.2929
G01 X28.6142 Y69.4260
G01 X28.5646 Y69.5646
G01 X28.5288 Y69.7074
G01 X28.5072 Y69.8530
G01 X28.5000 Y70.0000
G01 X28.5072 Y70.1470
G01 X28.5288 Y70.2926
G01 X28.5646 Y70.4354
G01 X28.6142 Y70.5740
G01 X28.6771 Y70.7071
G01 X28.7528 Y70.8334
G01 X28.8405 Y70.9516
G01 X28.9393 Y71.0607
G01 X29.0484 Y71.1595
G01 X29.1666 Y71.2472
G01 X29.2929 Y71.3229
G01 X29.4260 Y71.3858
G01 X29.5646 Y71.4354
G01 X29.7074 Y71.4712
G01 X29.8530 Y71.4928
G01 X30.0000 Y71.5000
G01 X30.1470 Y71.4928
G01 X30.2926 Y71.4712
G01 X30.4354 Y71.4354
G01 X30.5740 Y71.3858
G01 X30.7071 Y71.3229
G01 X30.8334 Y71.2472
G01 X30.9516 Y71.1595
G01 X31.0607 Y71.0607
G01 X31.1595 Y70.9516
G01 X31.2472 Y70.8334
G01 X31.3229 Y70.7071
G01 X31.3858 Y70.5740
G01 X31.4354 Y70.4354
G01 X31.4712 Y70.2926
G01 X31.4928 Y70.1470
G01 X31.5000 Y70.0000
G00 X31.5000 Y70.0000
G01 F250.00
G01 Z-1.2000
G01 F150.00
G01 X31.4928 Y69.8530
G01 X31.4712 Y69.7074
G01 X31.4354 Y69.5646
G01 X31.3858 Y69.4260
G01 X31.3229 Y69.2929
G01 X31.2472 Y69.1666
G01 X31.1595 Y69.0484
G01 X31.0607 Y68.9393
G01 X30.9516 Y68.8405
G01 X30.8334 Y68.7528
G01 X30.7071 Y68.6771
G01 X30.5740 Y68.6142
G01 X30.4354 Y68.5646
G01 X30.2926 Y68.5288
G01 X30.1470 Y68.5072
G01 X30.0000 Y68.5000
G01 X29.8530 Y68.5072
G01 X29.7074 Y68.5288
G01 X29.5646 Y68.5646
G01 X29.4260 Y68.6142
G01 X29.2929 Y68.6771
G01 X29.1666 Y68.7528
G01 X29.0484 Y68.8405
G01 X28.9393 Y68.9393
G01 X28.8405 Y69.0484
G01 X28.7528 Y69.1666
G01 X28.6771 Y69.2929
G01 X28.6142 Y69.4260
G01 X28.5646 Y69.5646
G01 X28.5288 Y69.7074
G01 X28.5072 Y69.8530
G01 X28.5000 Y70.0000
G01 X28.5072 Y70.1470
G01 X28.5288 Y70.2926
G01 X28.5646 Y70.4354
G01 X28.6142 Y70.5740
G01 X28.6771 Y70.7071
G01 X28.7528 Y70.8334
G01 X28.8405 Y70.9516
G01 X28.9393 Y71.0607
G01 X29.0484 Y71.1595
G01 X29.1666 Y71.2472
G01 X29.2929 Y71.3229
G01 X29.4260 Y71.3858
G01 X29.5646 Y71.4354
G01 X29.7074 Y71.4712
G01 X29.8530 Y71.4928
G01 X30.0000 Y71.5000
G01 X30.1470 Y71.4928
G01 X30.2926 Y71.4712
G01 X30.4354 Y71.4354
G01 X30.5740 Y71.3858
G01 X30.7071 Y71.3229
G01 X30.8334 Y71.2472
G01 X30.9516 Y71.1595
G01 X31.0607 Y71.0607
G01 X31.1595 Y70.9516
G01 X31.2472 Y70.8334
G01 X31.3229 Y70.7071
G01 X31.3858 Y70.5740
G01 X31.4354 Y70.4354
G01 X31.4712 Y70.2926
G01 X31.4928 Y70.1470
G01 X31.5000 Y70.0000
G00 X31.5000 Y70.0000
G01 F250.00
G01 Z-1.6000
G01 F150.00
G01 X31.4928 Y69.8530
G01 X31.4712 Y69.7074
G01 X31.4354 Y69.5646
G01 X31.3858 Y69.4260
G01 X31.3229 Y69.2929
G01 X31.2472 Y69.1666
G01 X31.1595 Y69.0484
G01 X31.0607 Y68.9393
G01 X30.9516 Y68.8405
G01 X30.8334 Y68.7528
G01 X30.7071 Y68.6771
G01 X30.5740 Y68.6142
G01 X30.4354 Y68.5646
G01 X30.2926 Y68.5288
G01 X30.1470 Y68.5072
G01 X30.0000 Y68.5000
G01 X29.8530 Y68.5072
G01 X29.7074 Y68.5288
G01 X29.5646 Y68.5646
G01 X29.4260 Y68.6142
G01 X29.2929 Y68.6771
G01 X29.1666 Y68.7528
G01 X29.0484 Y68.8405
G01 X28.9393 Y68.9393
G01 X28.8405 Y69.0484
G01 X28.7528 Y69.1666
G01 X28.6771 Y69.2929
G01 X28.6142 Y69.4260
G01 X28.5646 Y69.5646
G01 X28.5288 Y69.7074
G01 X28.5072 Y69.8530
G01 X28.5000 Y70.0000
G01 X28.5072 Y70.1470
G01 X28.5288 Y70.2926
G01 X28.5646 Y70.4354
G01 X28.6142 Y70.5740
G01 X28.6771 Y70.7071
G01 X28.7528 Y70.8334
G01 X28.8405 Y70.9516
G01 X28.9393 Y71.0607
G01 X29.0484 Y71.1595
G01 X29.1666 Y71.2472
G01 X29.2929 Y71.3229
G01 X29.4260 Y71.3858
G01 X29.5646 Y71.4354
G01 X29.7074 Y71.4712
G01 X29.8530 Y71.4928
G01 X30.0000 Y71.5000
G01 X30.1470 Y71.4928
G01 X30.2926 Y71.4712
G01 X30.4354 Y71.4354
G01 X30.5740 Y71.3858
G01 X30.7071 Y71.3229
G01 X30.8334 Y71.2472
G01 X30.9516 Y71.1595
G01 X31.0607 Y71.0607
G01 X31.1595 Y70.9516
G01 X31.2472 Y70.8334
G01 X31.3229 Y70.7071
G01 X31.3858 Y70.5740
G01 X31.4354 Y70.4354
G01 X31.4712 Y70.2926
G01 X31.4928 Y70.1470
G01 X31.5000 Y70.0000
G00 X31.5000 Y70.0000
G01 F250.00
G01 Z-1.7000
G01 F150.00
G01 X31.4928 Y69.8530
G01 X31.4712 Y69.7074
G01 X31.4354 Y69.5646
G01 X31.3858 Y69.4260
G01 X31.3229 Y69.2929
G01 X31.2472 Y69.1666
G01 X31.1595 Y69.0484
G01 X31.0607 Y68.9393
G01 X30.9516 Y68.8405
G01 X30.8334 Y68.7528
G01 X30.7071 Y68.6771
G01 X30.5740 Y68.6142
G01 X30.4354 Y68.5646
G01 X30.2926 Y68.5288
G01 X30.1470 Y68.5072
G01 X30.0000 Y68.5000
G01 X29.8530 Y68.5072
G01 X29.7074 Y68.5288
G01 X29.5646 Y68.5646
G01 X29.4260 Y68.6142
G01 X29.2929 Y68.6771
G01 X29.1666 Y68.7528
G01 X29.0484 Y68.8405
G01 X28.9393 Y68.9393
G01 X28.8405 Y69.0484
G01 X28.7528 Y69.1666
G01 X28.6771 Y69.2929
G01 X28.6142 Y69.4260
G01 X28.5646 Y69.5646
G01 X28.5288 Y69.7074
G01 X28.5072 Y69.8530
G01 X28.5000 Y70.0000
G01 X28.5072 Y70.1470
G01 X28.5288 Y70.2926
G01 X28.5646 Y70.4354
G01 X28.6142 Y70.5740
G01 X28.6771 Y70.7071
G01 X28.7528 Y70.8334
G01 X28.8405 Y70.9516
G01 X28.9393 Y71.0607
G01 X29.0484 Y71.1595
G01 X29.1666 Y71.2472
G01 X29.2929 Y71.3229
G01 X29.4260 Y71.3858
G01 X29.5646 Y71.4354
G01 X29.7074 Y71.4712
G01 X29.8530 Y71.4928
G01 X30.0000 Y71.5000
G01 X30.1470 Y71.4928
G01 X30.2926 Y71.4712
G01 X30.4354 Y71.4354
G01 X30.5740 Y71.3858
G01 X30.7071 Y71.3229
G01 X30.8334 Y71.2472
G01 X30.9516 Y71.1595
G01 X31.0607 Y71.0607
G01 X31.1595 Y70.9516
G01 X31.2472 Y70.8334
G01 X31.3229 Y70.7071
G01 X31.3858 Y70.5740
G01 X31.4354 Y70.4354
G01 X31.4712 Y70.2926
G01 X31.4928 Y70.1470
G01 X31.5000 Y70.0000
G00 Z5.0000
M05
G00 Z5.0000
G00 Z100.00
G00 X0.0 Y0.0

M02